(.../eagle-8.3.2/ulp/pcbgcode/pcb-gcode.ulp)
(Copyright 2005 - 2012 by John Johnson)
(See readme.txt for licensing terms.)
(This file generated from the board:)
(.../jose/code/vrx/schematic/vrx.brd)
(Current profile is .../ulp/pcbgcode/profiles/mach.pp  )
(This file generated 1/29/18 8:02 PM)
(Settings from pcb-machine.h)
(  Tool Size)
(0.1778  )
(Z Axis Settings)
(  High     Up        Down     Drill)
(12.7000 	2.5400  	-0.1778 	-0.8128 )
(spindle on time = 3.0000)
(milling depth = -0.2540)
(text depth = -0.1270)
(tool change at 12.7000 15.2400 25.4000 )
(feed rate xy = F508   )
(feed rate z  = F254   )
(Settings from pcb-defaults.h)
(isolate min = 0.0254)
(isolate max = 0.5080)
(isolate step = 0.1270)
(Generated bottom outlines, bottom drill, )
(Unit of measure: mm)
(Metric Mode)
G21
(Absolute Coordinates)
G90
G00 X0.0000  Y0.0000  
M03
G04 P3.000000
G00 Z2.5400  
G00 X-78.7119 Y41.5671 
G01 Z-0.1778 F254   
G01 X-81.4138 Y38.8652 F508   
G01 X-81.2940 Y38.8973 
G01 X-81.1644 Y38.8973 
G01 X-81.0391 Y38.8637 
G01 X-80.9268 Y38.7989 
G01 X-80.8351 Y38.7072 
G01 X-80.7703 Y38.5949 
G01 X-80.7367 Y38.4696 
G01 X-80.7367 Y38.3400 
G01 X-80.7500 Y38.2905 
G01 X-75.0724 Y38.2905 
G01 X-75.0653 Y38.3260 
G01 X-75.0069 Y38.4670 
G01 X-74.9221 Y38.5938 
G01 X-74.8142 Y38.7017 
G01 X-74.6874 Y38.7865 
G01 X-74.5464 Y38.8449 
G01 X-74.3967 Y38.8747 
G01 X-74.1961 Y38.8747 
G01 X-74.2279 Y38.9065 
G01 X-75.9043 Y40.5829 
G01 X-75.9333 Y40.6529 
G01 X-75.9333 Y40.6893 
G01 X-76.0452 Y40.7539 
G01 X-76.1369 Y40.8456 
G01 X-76.2017 Y40.9579 
G01 X-76.2353 Y41.0832 
G01 X-76.2353 Y41.2128 
G01 X-76.2017 Y41.3381 
G01 X-76.1369 Y41.4504 
G01 X-76.0452 Y41.5421 
G01 X-76.0019 Y41.5671 
G01 X-78.7119 Y41.5671 
G00 Z2.5400  
G00 X-53.8353 Y58.2903 
G01 Z-0.1778 F254   
G01 X-54.3687 Y58.8237 F508   
G01 X-54.3687 Y52.8449 
G01 X-54.3977 Y52.7749 
G01 X-54.4513 Y52.7213 
G01 X-55.3630 Y51.8096 
G01 X-54.8005 Y51.2471 
G01 X-54.8005 Y50.3529 
G01 X-55.4329 Y49.7205 
G01 X-56.3271 Y49.7205 
G01 X-56.9595 Y50.3529 
G01 X-56.9595 Y51.2471 
G01 X-56.3271 Y51.8795 
G01 X-55.8319 Y51.8795 
G01 X-55.4509 Y52.2605 
G01 X-56.3271 Y52.2605 
G01 X-56.9595 Y52.8929 
G01 X-56.9595 Y53.7871 
G01 X-56.3271 Y54.4195 
G01 X-55.4329 Y54.4195 
G01 X-54.8005 Y53.7871 
G01 X-54.8005 Y52.9109 
G01 X-54.7497 Y52.9617 
G01 X-54.7497 Y58.7475 
G01 X-54.8005 Y58.7983 
G01 X-54.8005 Y57.9729 
G01 X-55.4329 Y57.3405 
G01 X-56.3091 Y57.3405 
G01 X-55.9281 Y56.9595 
G01 X-55.4329 Y56.9595 
G01 X-54.8005 Y56.3271 
G01 X-54.8005 Y55.4329 
G01 X-55.4329 Y54.8005 
G01 X-56.3271 Y54.8005 
G01 X-56.4832 Y54.9566 
G01 X-56.9595 Y54.4803 
G01 X-56.9595 Y45.3417 
G01 X-56.9595 Y46.1671 
G01 X-56.3271 Y46.7995 
G01 X-55.4509 Y46.7995 
G01 X-55.8319 Y47.1805 
G01 X-56.3271 Y47.1805 
G01 X-56.9595 Y47.8129 
G01 X-56.9595 Y48.7071 
G01 X-56.3271 Y49.3395 
G01 X-55.4329 Y49.3395 
G01 X-54.8005 Y48.7071 
G01 X-54.8005 Y47.8129 
G01 X-55.3630 Y47.2504 
G01 X-54.8672 Y46.7546 
G01 X-54.8993 Y46.8744 
G01 X-54.8993 Y47.0040 
G01 X-54.8657 Y47.1293 
G01 X-54.8009 Y47.2416 
G01 X-54.7092 Y47.3333 
G01 X-54.5969 Y47.3981 
G01 X-54.4716 Y47.4317 
G01 X-54.3420 Y47.4317 
G01 X-54.2167 Y47.3981 
G01 X-54.1044 Y47.3333 
G01 X-54.0127 Y47.2416 
G01 X-53.9479 Y47.1293 
G01 X-53.9143 Y47.0040 
G01 X-53.9143 Y46.8744 
G01 X-53.9479 Y46.7491 
G01 X-54.0127 Y46.6368 
G01 X-54.1044 Y46.5451 
G01 X-54.1653 Y46.5099 
G01 X-53.8417 Y46.1863 
G01 X-53.8353 Y46.1799 
G01 X-53.8353 Y58.2903 
G00 Z2.5400  
G00 X-54.1401 Y40.3833 
G01 Z-0.1778 F254   
G01 X-55.3121 Y39.2113 F508   
G01 X-55.3657 Y39.1577 
G01 X-55.3978 Y39.1444 
G01 X-54.8005 Y38.5471 
G01 X-54.8005 Y37.6709 
G01 X-54.1401 Y38.3313 
G01 X-54.1401 Y40.3833 
G00 Z2.5400  
G00 X-65.0126 Y36.2465 
G01 Z-0.1778 F254   
G01 X-64.8858 Y36.1617 F508   
G01 X-64.7779 Y36.0538 
G01 X-64.6931 Y35.9270 
G01 X-64.6347 Y35.7860 
G01 X-64.6049 Y35.6363 
G01 X-64.6049 Y35.4837 
G01 X-64.6347 Y35.3340 
G01 X-64.6931 Y35.1930 
G01 X-64.7779 Y35.0662 
G01 X-64.8858 Y34.9582 
G01 X-65.0126 Y34.8735 
G01 X-65.1536 Y34.8151 
G01 X-65.3033 Y34.7853 
G01 X-66.7767 Y34.7853 
G01 X-66.9264 Y34.8151 
G01 X-67.0674 Y34.8735 
G01 X-67.1942 Y34.9582 
G01 X-67.3021 Y35.0662 
G01 X-67.3869 Y35.1930 
G01 X-67.4453 Y35.3340 
G01 X-67.4726 Y35.4711 
G01 X-68.2725 Y35.4711 
G01 X-66.5961 Y33.7947 
G01 X-65.3033 Y33.7947 
G01 X-65.1536 Y33.7649 
G01 X-65.0126 Y33.7065 
G01 X-64.8858 Y33.6217 
G01 X-64.7779 Y33.5138 
G01 X-64.6931 Y33.3870 
G01 X-64.6410 Y33.2613 
G01 X-58.4481 Y33.2613 
G01 X-56.7780 Y34.9314 
G01 X-56.9595 Y35.1129 
G01 X-56.9595 Y36.0071 
G01 X-56.3271 Y36.6395 
G01 X-55.4329 Y36.6395 
G01 X-54.8005 Y36.0071 
G01 X-54.8005 Y35.1129 
G01 X-55.4329 Y34.4805 
G01 X-56.3271 Y34.4805 
G01 X-56.5086 Y34.6620 
G01 X-58.2613 Y32.9093 
G01 X-58.3313 Y32.8803 
G01 X-64.6175 Y32.8803 
G01 X-64.6347 Y32.7940 
G01 X-64.6931 Y32.6530 
G01 X-64.7779 Y32.5262 
G01 X-64.8858 Y32.4183 
G01 X-65.0126 Y32.3335 
G01 X-65.1536 Y32.2751 
G01 X-65.3033 Y32.2453 
G01 X-66.7767 Y32.2453 
G01 X-66.9264 Y32.2751 
G01 X-67.0674 Y32.3335 
G01 X-67.1942 Y32.4183 
G01 X-67.3021 Y32.5262 
G01 X-67.3869 Y32.6530 
G01 X-67.4453 Y32.7940 
G01 X-67.4751 Y32.9437 
G01 X-67.4751 Y33.0963 
G01 X-67.4453 Y33.2460 
G01 X-67.3869 Y33.3870 
G01 X-67.3021 Y33.5138 
G01 X-67.1942 Y33.6217 
G01 X-67.0674 Y33.7065 
G01 X-67.0528 Y33.7126 
G01 X-72.1641 Y38.8239 
G01 X-72.7229 Y38.8239 
G01 X-72.6326 Y38.7865 
G01 X-72.5058 Y38.7017 
G01 X-72.3979 Y38.5938 
G01 X-72.3131 Y38.4670 
G01 X-72.2547 Y38.3260 
G01 X-72.2249 Y38.1763 
G01 X-72.2249 Y38.0237 
G01 X-72.2547 Y37.8740 
G01 X-72.3131 Y37.7330 
G01 X-72.3979 Y37.6062 
G01 X-72.5058 Y37.4982 
G01 X-72.6326 Y37.4135 
G01 X-72.7736 Y37.3551 
G01 X-72.9233 Y37.3253 
G01 X-74.3967 Y37.3253 
G01 X-74.5464 Y37.3551 
G01 X-74.6874 Y37.4135 
G01 X-74.8142 Y37.4982 
G01 X-74.9221 Y37.6062 
G01 X-75.0069 Y37.7330 
G01 X-75.0653 Y37.8740 
G01 X-75.0724 Y37.9095 
G01 X-80.9623 Y37.9095 
G01 X-81.0323 Y37.9385 
G01 X-81.0395 Y37.9457 
G01 X-81.1644 Y37.9123 
G01 X-81.2940 Y37.9123 
G01 X-81.4193 Y37.9459 
G01 X-81.5316 Y38.0107 
G01 X-81.6233 Y38.1024 
G01 X-81.6881 Y38.2147 
G01 X-81.7217 Y38.3400 
G01 X-81.7217 Y38.4696 
G01 X-81.6896 Y38.5894 
G01 X-81.8167 Y38.4623 
G01 X-81.7753 Y38.4209 
G01 X-81.7753 Y37.7791 
G01 X-82.2291 Y37.3253 
G01 X-82.8709 Y37.3253 
G01 X-83.3247 Y37.7791 
G01 X-83.3247 Y37.9095 
G01 X-87.8559 Y37.9095 
G01 X-89.6021 Y36.1633 
G01 X-89.6557 Y36.1097 
G01 X-89.7257 Y36.0807 
G01 X-89.9617 Y36.0807 
G01 X-89.9184 Y36.0557 
G01 X-89.8267 Y35.9640 
G01 X-89.7621 Y35.8521 
G01 X-75.0379 Y35.8521 
G01 X-75.0069 Y35.9270 
G01 X-74.9221 Y36.0538 
G01 X-74.8142 Y36.1617 
G01 X-74.6874 Y36.2465 
G01 X-74.5464 Y36.3049 
G01 X-74.3967 Y36.3347 
G01 X-72.9233 Y36.3347 
G01 X-72.7736 Y36.3049 
G01 X-72.6326 Y36.2465 
G01 X-72.5058 Y36.1617 
G01 X-72.3979 Y36.0538 
G01 X-72.3131 Y35.9270 
G01 X-72.2547 Y35.7860 
G01 X-72.2249 Y35.6363 
G01 X-72.2249 Y35.4837 
G01 X-72.2547 Y35.3340 
G01 X-72.3131 Y35.1930 
G01 X-72.3979 Y35.0662 
G01 X-72.5058 Y34.9582 
G01 X-72.6326 Y34.8735 
G01 X-72.7736 Y34.8151 
G01 X-72.9233 Y34.7853 
G01 X-73.4187 Y34.7853 
G01 X-73.4187 Y33.7947 
G01 X-72.9233 Y33.7947 
G01 X-72.7736 Y33.7649 
G01 X-72.6326 Y33.7065 
G01 X-72.5058 Y33.6217 
G01 X-72.3979 Y33.5138 
G01 X-72.3131 Y33.3870 
G01 X-72.2547 Y33.2460 
G01 X-72.2249 Y33.0963 
G01 X-72.2249 Y32.9437 
G01 X-72.2547 Y32.7940 
G01 X-72.3131 Y32.6530 
G01 X-72.3979 Y32.5262 
G01 X-72.5058 Y32.4183 
G01 X-72.6326 Y32.3335 
G01 X-72.7736 Y32.2751 
G01 X-72.9233 Y32.2453 
G01 X-74.3967 Y32.2453 
G01 X-74.5464 Y32.2751 
G01 X-74.6874 Y32.3335 
G01 X-74.8142 Y32.4183 
G01 X-74.9221 Y32.5262 
G01 X-75.0069 Y32.6530 
G01 X-75.0653 Y32.7940 
G01 X-75.0951 Y32.9437 
G01 X-75.0951 Y33.0963 
G01 X-75.0653 Y33.2460 
G01 X-75.0069 Y33.3870 
G01 X-74.9221 Y33.5138 
G01 X-74.8142 Y33.6217 
G01 X-74.6874 Y33.7065 
G01 X-74.5464 Y33.7649 
G01 X-74.3967 Y33.7947 
G01 X-73.7997 Y33.7947 
G01 X-73.7997 Y34.7853 
G01 X-74.3967 Y34.7853 
G01 X-74.5464 Y34.8151 
G01 X-74.6874 Y34.8735 
G01 X-74.8142 Y34.9582 
G01 X-74.9221 Y35.0662 
G01 X-75.0069 Y35.1930 
G01 X-75.0653 Y35.3340 
G01 X-75.0926 Y35.4711 
G01 X-89.7621 Y35.4711 
G01 X-89.8267 Y35.3592 
G01 X-89.9184 Y35.2675 
G01 X-90.0307 Y35.2027 
G01 X-90.1560 Y35.1691 
G01 X-90.2856 Y35.1691 
G01 X-90.4109 Y35.2027 
G01 X-90.5232 Y35.2675 
G01 X-90.6149 Y35.3592 
G01 X-90.6797 Y35.4715 
G01 X-90.7133 Y35.5968 
G01 X-90.7133 Y35.7264 
G01 X-90.6797 Y35.8517 
G01 X-90.6149 Y35.9640 
G01 X-90.5232 Y36.0557 
G01 X-90.4799 Y36.0807 
G01 X-90.5991 Y36.0807 
G01 X-92.4977 Y34.1821 
G01 X-92.5513 Y34.1285 
G01 X-92.6213 Y34.0995 
G01 X-93.8403 Y34.0995 
G01 X-93.8403 Y29.3675 
G01 X-93.8153 Y29.4108 
G01 X-93.7236 Y29.5025 
G01 X-93.6113 Y29.5673 
G01 X-93.4860 Y29.6009 
G01 X-93.3564 Y29.6009 
G01 X-93.2311 Y29.5673 
G01 X-93.1188 Y29.5025 
G01 X-93.0271 Y29.4108 
G01 X-92.9625 Y29.2989 
G01 X-90.9447 Y29.2989 
G01 X-90.9447 Y29.5309 
G01 X-90.4909 Y29.9847 
G01 X-89.8491 Y29.9847 
G01 X-89.3953 Y29.5309 
G01 X-89.3953 Y28.8891 
G01 X-89.8491 Y28.4353 
G01 X-90.4909 Y28.4353 
G01 X-90.9447 Y28.8891 
G01 X-90.9447 Y28.9179 
G01 X-92.9625 Y28.9179 
G01 X-93.0271 Y28.8060 
G01 X-93.1188 Y28.7143 
G01 X-93.2311 Y28.6495 
G01 X-93.3564 Y28.6159 
G01 X-93.4860 Y28.6159 
G01 X-93.6113 Y28.6495 
G01 X-93.7236 Y28.7143 
G01 X-93.8153 Y28.8060 
G01 X-93.8403 Y28.8493 
G01 X-93.8403 Y23.7365 
G01 X-93.8693 Y23.6665 
G01 X-93.9229 Y23.6129 
G01 X-96.2787 Y21.2571 
G01 X-96.2787 Y19.9183 
G01 X-95.6805 Y19.9183 
G01 X-95.5127 Y19.8849 
G01 X-95.3547 Y19.8195 
G01 X-95.2125 Y19.7245 
G01 X-95.0915 Y19.6035 
G01 X-94.9965 Y19.4613 
G01 X-94.9311 Y19.3033 
G01 X-94.8977 Y19.1355 
G01 X-94.8977 Y18.9645 
G01 X-94.9311 Y18.7967 
G01 X-94.9965 Y18.6387 
G01 X-95.0915 Y18.4965 
G01 X-95.2125 Y18.3755 
G01 X-95.3547 Y18.2805 
G01 X-95.5127 Y18.2151 
G01 X-95.6805 Y18.1817 
G01 X-97.3595 Y18.1817 
G01 X-97.5273 Y18.2151 
G01 X-97.6853 Y18.2805 
G01 X-97.7788 Y18.3430 
G01 X-97.6095 Y18.1737 
G01 X-91.3665 Y18.1737 
G01 X-90.8779 Y18.6623 
G01 X-90.9447 Y18.7291 
G01 X-90.9447 Y19.3709 
G01 X-90.4909 Y19.8247 
G01 X-90.4113 Y19.8247 
G01 X-90.4113 Y23.3553 
G01 X-90.4909 Y23.3553 
G01 X-90.9447 Y23.8091 
G01 X-90.9447 Y24.4509 
G01 X-90.4909 Y24.9047 
G01 X-89.8491 Y24.9047 
G01 X-89.3953 Y24.4509 
G01 X-89.3953 Y24.4221 
G01 X-89.3853 Y24.4221 
G01 X-83.2195 Y30.5879 
G01 X-83.1659 Y30.6415 
G01 X-83.0959 Y30.6705 
G01 X-75.5525 Y30.6705 
G01 X-75.4825 Y30.6415 
G01 X-75.0443 Y30.2033 
G01 X-75.0653 Y30.2540 
G01 X-75.0951 Y30.4037 
G01 X-75.0951 Y30.5563 
G01 X-75.0653 Y30.7060 
G01 X-75.0069 Y30.8470 
G01 X-74.9221 Y30.9738 
G01 X-74.8142 Y31.0817 
G01 X-74.6874 Y31.1665 
G01 X-74.5464 Y31.2249 
G01 X-74.3967 Y31.2547 
G01 X-72.9233 Y31.2547 
G01 X-72.7736 Y31.2249 
G01 X-72.6326 Y31.1665 
G01 X-72.5058 Y31.0817 
G01 X-72.3979 Y30.9738 
G01 X-72.3131 Y30.8470 
G01 X-72.2547 Y30.7060 
G01 X-72.2476 Y30.6705 
G01 X-68.0493 Y30.6705 
G01 X-66.6079 Y32.1119 
G01 X-66.5543 Y32.1655 
G01 X-66.4843 Y32.1945 
G01 X-58.7529 Y32.1945 
G01 X-56.5495 Y34.3979 
G01 X-56.4959 Y34.4515 
G01 X-56.4259 Y34.4805 
G01 X-55.4001 Y34.4805 
G01 X-53.8353 Y36.0453 
G01 X-53.8353 Y38.0973 
G01 X-55.1597 Y36.7729 
G01 X-55.2133 Y36.7193 
G01 X-55.2833 Y36.6903 
G01 X-64.6911 Y36.6903 
G01 X-65.0991 Y36.2823 
G01 X-65.0126 Y36.2465 
G00 Z2.5400  
G00 X-67.4179 Y35.8521 
G01 Z-0.1778 F254   
G01 X-67.3869 Y35.9270 F508   
G01 X-67.3021 Y36.0538 
G01 X-67.1942 Y36.1617 
G01 X-67.0674 Y36.2465 
G01 X-66.9264 Y36.3049 
G01 X-66.7767 Y36.3347 
G01 X-65.5855 Y36.3347 
G01 X-64.8779 Y37.0423 
G01 X-64.8079 Y37.0713 
G01 X-56.3779 Y37.0713 
G01 X-56.9595 Y37.6529 
G01 X-56.9595 Y38.5471 
G01 X-56.3779 Y39.1287 
G01 X-63.7767 Y39.1287 
G01 X-63.8465 Y39.0589 
G01 X-63.9001 Y39.0053 
G01 X-63.9701 Y38.9763 
G01 X-70.2943 Y38.9763 
G01 X-70.3643 Y39.0053 
G01 X-72.2757 Y40.9167 
G01 X-72.2547 Y40.8660 
G01 X-72.2249 Y40.7163 
G01 X-72.2249 Y40.5637 
G01 X-72.2547 Y40.4140 
G01 X-72.3131 Y40.2730 
G01 X-72.3979 Y40.1462 
G01 X-72.4441 Y40.0999 
G01 X-68.1963 Y35.8521 
G01 X-67.4179 Y35.8521 
G00 Z2.5400  
G00 X-66.7767 Y38.8747 
G01 Z-0.1778 F254   
G01 X-65.3033 Y38.8747 F508   
G01 X-65.1536 Y38.8449 
G01 X-65.0126 Y38.7865 
G01 X-64.8858 Y38.7017 
G01 X-64.7779 Y38.5938 
G01 X-64.6931 Y38.4670 
G01 X-64.6347 Y38.3260 
G01 X-64.6049 Y38.1763 
G01 X-64.6049 Y38.0237 
G01 X-64.6347 Y37.8740 
G01 X-64.6931 Y37.7330 
G01 X-64.7779 Y37.6062 
G01 X-64.8858 Y37.4982 
G01 X-65.0126 Y37.4135 
G01 X-65.1536 Y37.3551 
G01 X-65.3033 Y37.3253 
G01 X-66.7767 Y37.3253 
G01 X-66.9264 Y37.3551 
G01 X-67.0674 Y37.4135 
G01 X-67.1942 Y37.4982 
G01 X-67.3021 Y37.6062 
G01 X-67.3869 Y37.7330 
G01 X-67.4453 Y37.8740 
G01 X-67.4751 Y38.0237 
G01 X-67.4751 Y38.1763 
G01 X-67.4453 Y38.3260 
G01 X-67.3869 Y38.4670 
G01 X-67.3021 Y38.5938 
G01 X-67.1942 Y38.7017 
G01 X-67.0674 Y38.7865 
G01 X-66.9264 Y38.8449 
G01 X-66.7767 Y38.8747 
G00 Z2.5400  
G00 X-73.9875 Y39.2049 
G01 Z-0.1778 F254   
G01 X-72.0879 Y39.2049 F508   
G01 X-72.7773 Y39.8943 
G01 X-72.9233 Y39.8653 
G01 X-74.3967 Y39.8653 
G01 X-74.5464 Y39.8951 
G01 X-74.6874 Y39.9535 
G01 X-74.8142 Y40.0383 
G01 X-74.9221 Y40.1462 
G01 X-75.0069 Y40.2730 
G01 X-75.0653 Y40.4140 
G01 X-75.0951 Y40.5637 
G01 X-75.0951 Y40.7163 
G01 X-75.0653 Y40.8660 
G01 X-75.0069 Y41.0070 
G01 X-74.9221 Y41.1338 
G01 X-74.8142 Y41.2417 
G01 X-74.6874 Y41.3265 
G01 X-74.5464 Y41.3849 
G01 X-74.3967 Y41.4147 
G01 X-72.9233 Y41.4147 
G01 X-72.7736 Y41.3849 
G01 X-72.7229 Y41.3639 
G01 X-72.9261 Y41.5671 
G01 X-75.4837 Y41.5671 
G01 X-75.4404 Y41.5421 
G01 X-75.3487 Y41.4504 
G01 X-75.2839 Y41.3381 
G01 X-75.2503 Y41.2128 
G01 X-75.2503 Y41.0832 
G01 X-75.2839 Y40.9579 
G01 X-75.3487 Y40.8456 
G01 X-75.4404 Y40.7539 
G01 X-75.5013 Y40.7187 
G01 X-73.9875 Y39.2049 
G00 Z2.5400  
G00 X-90.3379 Y41.3652 
G01 Z-0.1778 F254   
G01 X-90.3379 Y41.2356 F508   
G01 X-90.3715 Y41.1103 
G01 X-90.4363 Y40.9980 
G01 X-90.5280 Y40.9063 
G01 X-90.6403 Y40.8415 
G01 X-90.7656 Y40.8079 
G01 X-90.8952 Y40.8079 
G01 X-91.0205 Y40.8415 
G01 X-91.1328 Y40.9063 
G01 X-91.2245 Y40.9980 
G01 X-91.2893 Y41.1103 
G01 X-91.3229 Y41.2356 
G01 X-91.3229 Y41.3652 
G01 X-91.2895 Y41.4901 
G01 X-95.0412 Y45.2418 
G01 X-95.0915 Y45.1665 
G01 X-95.2125 Y45.0455 
G01 X-95.3547 Y44.9505 
G01 X-95.5127 Y44.8851 
G01 X-95.6805 Y44.8517 
G01 X-97.3595 Y44.8517 
G01 X-97.5273 Y44.8851 
G01 X-97.6853 Y44.9505 
G01 X-97.8275 Y45.0455 
G01 X-97.9485 Y45.1665 
G01 X-98.0435 Y45.3087 
G01 X-98.1075 Y45.4633 
G01 X-98.1075 Y45.0369 
G01 X-97.1189 Y44.0483 
G01 X-95.6805 Y44.0483 
G01 X-95.5127 Y44.0149 
G01 X-95.3547 Y43.9495 
G01 X-95.2125 Y43.8544 
G01 X-95.0915 Y43.7335 
G01 X-94.9965 Y43.5913 
G01 X-94.9311 Y43.4333 
G01 X-94.9085 Y43.3197 
G01 X-93.8405 Y43.3197 
G01 X-93.7705 Y43.2907 
G01 X-89.0461 Y38.5663 
G01 X-88.9925 Y38.5127 
G01 X-88.9635 Y38.4427 
G01 X-88.9635 Y37.7979 
G01 X-86.1951 Y40.5663 
G01 X-86.2560 Y40.6015 
G01 X-86.3477 Y40.6932 
G01 X-86.4125 Y40.8055 
G01 X-86.4461 Y40.9308 
G01 X-86.4461 Y41.0604 
G01 X-86.4125 Y41.1857 
G01 X-86.3477 Y41.2980 
G01 X-86.2560 Y41.3897 
G01 X-86.2127 Y41.4147 
G01 X-90.2587 Y41.4147 
G01 X-90.3287 Y41.4437 
G01 X-90.3700 Y41.4850 
G01 X-90.3379 Y41.3652 
G00 Z2.5400  
G00 X-90.4085 Y42.1500 
G01 Z-0.1778 F254   
G01 X-90.4085 Y42.2796 F508   
G01 X-90.3749 Y42.4049 
G01 X-90.3101 Y42.5172 
G01 X-90.2184 Y42.6089 
G01 X-90.1061 Y42.6737 
G01 X-89.9808 Y42.7073 
G01 X-89.8512 Y42.7073 
G01 X-89.7259 Y42.6737 
G01 X-89.6136 Y42.6089 
G01 X-89.5219 Y42.5172 
G01 X-89.4573 Y42.4053 
G01 X-85.0013 Y42.4053 
G01 X-84.9313 Y42.3763 
G01 X-84.8900 Y42.3350 
G01 X-84.9221 Y42.4548 
G01 X-84.9221 Y42.5844 
G01 X-84.8885 Y42.7097 
G01 X-84.8237 Y42.8220 
G01 X-84.7320 Y42.9137 
G01 X-84.6197 Y42.9785 
G01 X-84.4944 Y43.0121 
G01 X-84.3648 Y43.0121 
G01 X-84.2399 Y42.9787 
G01 X-83.2071 Y44.0115 
G01 X-83.3247 Y44.1291 
G01 X-83.3247 Y44.7709 
G01 X-82.8709 Y45.2247 
G01 X-82.2291 Y45.2247 
G01 X-81.7753 Y44.7709 
G01 X-81.7753 Y44.1291 
G01 X-82.2291 Y43.6753 
G01 X-82.8709 Y43.6753 
G01 X-82.9377 Y43.7421 
G01 X-83.9705 Y42.7093 
G01 X-83.9371 Y42.5844 
G01 X-83.9371 Y42.4548 
G01 X-83.9707 Y42.3295 
G01 X-84.0355 Y42.2172 
G01 X-84.1272 Y42.1255 
G01 X-84.1705 Y42.1005 
G01 X-79.1745 Y42.1005 
G01 X-79.1047 Y42.1703 
G01 X-79.0511 Y42.2239 
G01 X-78.9811 Y42.2529 
G01 X-69.6495 Y42.2529 
G01 X-71.7069 Y44.3103 
G01 X-81.2671 Y44.3103 
G01 X-81.3371 Y44.3393 
G01 X-82.2225 Y45.2247 
G01 X-87.7471 Y45.2247 
G01 X-87.7471 Y45.1980 
G01 X-87.7807 Y45.0727 
G01 X-87.8455 Y44.9604 
G01 X-87.9372 Y44.8687 
G01 X-88.0495 Y44.8039 
G01 X-88.1748 Y44.7703 
G01 X-88.3044 Y44.7703 
G01 X-88.4297 Y44.8039 
G01 X-88.5420 Y44.8687 
G01 X-88.6337 Y44.9604 
G01 X-88.6985 Y45.0727 
G01 X-88.7321 Y45.1980 
G01 X-88.7321 Y45.3276 
G01 X-88.6985 Y45.4529 
G01 X-88.6337 Y45.5652 
G01 X-88.5420 Y45.6569 
G01 X-88.4987 Y45.6819 
G01 X-88.6179 Y45.6819 
G01 X-89.1894 Y45.1104 
G01 X-89.0461 Y44.9671 
G01 X-88.9925 Y44.9135 
G01 X-88.9635 Y44.8435 
G01 X-88.9635 Y44.1581 
G01 X-88.9925 Y44.0881 
G01 X-89.7545 Y43.3261 
G01 X-89.8081 Y43.2725 
G01 X-89.8781 Y43.2435 
G01 X-90.5635 Y43.2435 
G01 X-90.6335 Y43.2725 
G01 X-93.3767 Y46.0157 
G01 X-93.4303 Y46.0693 
G01 X-93.4593 Y46.1393 
G01 X-93.4593 Y46.3753 
G01 X-93.4843 Y46.3320 
G01 X-93.5760 Y46.2403 
G01 X-93.6879 Y46.1757 
G01 X-93.6879 Y45.3417 
G01 X-90.3764 Y42.0302 
G01 X-90.4085 Y42.1500 
G00 Z2.5400  
G00 X-74.3967 Y43.9547 
G01 Z-0.1778 F254   
G01 X-72.9233 Y43.9547 F508   
G01 X-72.7736 Y43.9249 
G01 X-72.6326 Y43.8665 
G01 X-72.5058 Y43.7817 
G01 X-72.3979 Y43.6738 
G01 X-72.3131 Y43.5470 
G01 X-72.2547 Y43.4060 
G01 X-72.2249 Y43.2563 
G01 X-72.2249 Y43.1037 
G01 X-72.2547 Y42.9540 
G01 X-72.3131 Y42.8130 
G01 X-72.3979 Y42.6862 
G01 X-72.5058 Y42.5783 
G01 X-72.6326 Y42.4935 
G01 X-72.7736 Y42.4351 
G01 X-72.9233 Y42.4053 
G01 X-74.3967 Y42.4053 
G01 X-74.5464 Y42.4351 
G01 X-74.6874 Y42.4935 
G01 X-74.8142 Y42.5783 
G01 X-74.9221 Y42.6862 
G01 X-75.0069 Y42.8130 
G01 X-75.0653 Y42.9540 
G01 X-75.0951 Y43.1037 
G01 X-75.0951 Y43.2563 
G01 X-75.0653 Y43.4060 
G01 X-75.0069 Y43.5470 
G01 X-74.9221 Y43.6738 
G01 X-74.8142 Y43.7817 
G01 X-74.6874 Y43.8665 
G01 X-74.5464 Y43.9249 
G01 X-74.3967 Y43.9547 
G00 Z2.5400  
G00 X-97.1523 Y47.0535 
G01 Z-0.1778 F254   
G01 X-97.7788 Y46.4270 F508   
G01 X-97.6853 Y46.4895 
G01 X-97.5273 Y46.5549 
G01 X-97.3595 Y46.5883 
G01 X-95.6805 Y46.5883 
G01 X-95.5127 Y46.5549 
G01 X-95.3547 Y46.4895 
G01 X-95.2125 Y46.3944 
G01 X-95.0915 Y46.2735 
G01 X-94.9965 Y46.1313 
G01 X-94.9311 Y45.9733 
G01 X-94.8977 Y45.8055 
G01 X-94.8977 Y45.6371 
G01 X-91.0200 Y41.7595 
G01 X-90.8952 Y41.7929 
G01 X-90.7656 Y41.7929 
G01 X-90.6458 Y41.7608 
G01 X-93.9863 Y45.1013 
G01 X-94.0399 Y45.1549 
G01 X-94.0689 Y45.2249 
G01 X-94.0689 Y46.1757 
G01 X-94.1808 Y46.2403 
G01 X-94.2725 Y46.3320 
G01 X-94.3373 Y46.4443 
G01 X-94.3709 Y46.5696 
G01 X-94.3709 Y46.6992 
G01 X-94.3373 Y46.8245 
G01 X-94.2725 Y46.9368 
G01 X-94.1808 Y47.0285 
G01 X-94.1375 Y47.0535 
G01 X-97.1523 Y47.0535 
G00 Z2.5400  
G00 X-79.0983 Y41.7195 
G01 Z-0.1778 F254   
G01 X-84.7723 Y41.7195 F508   
G01 X-84.8423 Y41.7485 
G01 X-84.8959 Y41.8021 
G01 X-85.1181 Y42.0243 
G01 X-89.4573 Y42.0243 
G01 X-89.5219 Y41.9124 
G01 X-89.6136 Y41.8207 
G01 X-89.6569 Y41.7957 
G01 X-85.6109 Y41.7957 
G01 X-85.5409 Y41.7667 
G01 X-85.4873 Y41.7131 
G01 X-83.2839 Y39.5097 
G01 X-82.6023 Y39.5097 
G01 X-82.5377 Y39.6216 
G01 X-82.4460 Y39.7133 
G01 X-82.3337 Y39.7781 
G01 X-82.2084 Y39.8117 
G01 X-82.0788 Y39.8117 
G01 X-81.9535 Y39.7781 
G01 X-81.8412 Y39.7133 
G01 X-81.7495 Y39.6216 
G01 X-81.6847 Y39.5093 
G01 X-81.6511 Y39.3840 
G01 X-81.6511 Y39.2544 
G01 X-81.6832 Y39.1346 
G01 X-79.0983 Y41.7195 
G00 Z2.5400  
G00 X-82.0861 Y38.7317 
G01 Z-0.1778 F254   
G01 X-81.9590 Y38.8588 F508   
G01 X-82.0788 Y38.8267 
G01 X-82.1811 Y38.8267 
G01 X-82.0861 Y38.7317 
G00 Z2.5400  
G00 X-83.3249 Y39.1287 
G01 Z-0.1778 F254   
G01 X-83.4007 Y39.1287 F508   
G01 X-83.4707 Y39.1577 
G01 X-85.4932 Y41.1802 
G01 X-85.4611 Y41.0604 
G01 X-85.4611 Y40.9308 
G01 X-85.4947 Y40.8055 
G01 X-85.5595 Y40.6932 
G01 X-85.6512 Y40.6015 
G01 X-85.7631 Y40.5369 
G01 X-85.7631 Y40.5005 
G01 X-85.7921 Y40.4305 
G01 X-87.9321 Y38.2905 
G01 X-83.3247 Y38.2905 
G01 X-83.3247 Y38.4209 
G01 X-82.8709 Y38.8747 
G01 X-82.3587 Y38.8747 
G01 X-82.4460 Y38.9251 
G01 X-82.5377 Y39.0168 
G01 X-82.6023 Y39.1287 
G01 X-83.3249 Y39.1287 
G00 Z2.5400  
G00 X-62.9033 Y42.3291 
G01 Z-0.1778 F254   
G01 X-62.9385 Y42.3291 F508   
G01 X-62.7099 Y42.1005 
G01 X-60.6095 Y42.1005 
G01 X-60.6528 Y42.1255 
G01 X-60.7445 Y42.2172 
G01 X-60.8091 Y42.3291 
G01 X-62.9033 Y42.3291 
G00 Z2.5400  
G00 X-68.3487 Y8.1153  
G01 Z-0.1778 F254   
G01 X-56.4669 Y8.1153  F508   
G01 X-55.5017 Y9.0805  
G01 X-56.3271 Y9.0805  
G01 X-56.9595 Y9.7129  
G01 X-56.9595 Y10.5891 
G01 X-58.7185 Y8.8301  
G01 X-58.7885 Y8.8011  
G01 X-65.8774 Y8.8011  
G01 X-65.9047 Y8.6640  
G01 X-65.9631 Y8.5230  
G01 X-66.0478 Y8.3962  
G01 X-66.1558 Y8.2882  
G01 X-66.2826 Y8.2035  
G01 X-66.4236 Y8.1451  
G01 X-66.5733 Y8.1153  
G01 X-68.0467 Y8.1153  
G01 X-68.1964 Y8.1451  
G01 X-68.3374 Y8.2035  
G01 X-68.4642 Y8.2882  
G01 X-68.5721 Y8.3962  
G01 X-68.6569 Y8.5230  
G01 X-68.7153 Y8.6640  
G01 X-68.7451 Y8.8137  
G01 X-68.7451 Y8.9663  
G01 X-68.7153 Y9.1160  
G01 X-68.6569 Y9.2570  
G01 X-68.5721 Y9.3838  
G01 X-68.4642 Y9.4917  
G01 X-68.3374 Y9.5765  
G01 X-68.2509 Y9.6123  
G01 X-69.2685 Y10.6299 
G01 X-69.9501 Y10.6299 
G01 X-70.0147 Y10.5180 
G01 X-70.1064 Y10.4263 
G01 X-70.2187 Y10.3615 
G01 X-70.3440 Y10.3279 
G01 X-70.4736 Y10.3279 
G01 X-70.5934 Y10.3600 
G01 X-68.3487 Y8.1153  
G00 Z2.5400  
G00 X-71.0538 Y10.8204 
G01 Z-0.1778 F254   
G01 X-70.8692 Y10.6358 F508   
G01 X-70.9013 Y10.7556 
G01 X-70.9013 Y10.8852 
G01 X-70.8692 Y11.0050 
G01 X-71.0538 Y10.8204 
G00 Z2.5400  
G00 X-98.0435 Y34.7013 
G01 Z-0.1778 F254   
G01 X-97.9810 Y34.7948 F508   
G01 X-98.1075 Y34.6683 
G01 X-98.1075 Y34.5467 
G01 X-98.0435 Y34.7013 
G00 Z2.5400  
G00 X-94.2213 Y34.0995 
G01 Z-0.1778 F254   
G01 X-94.9186 Y34.0995 F508   
G01 X-94.9311 Y34.0367 
G01 X-94.9965 Y33.8787 
G01 X-95.0915 Y33.7365 
G01 X-95.2125 Y33.6155 
G01 X-95.3547 Y33.5205 
G01 X-95.5127 Y33.4551 
G01 X-95.6805 Y33.4217 
G01 X-97.3595 Y33.4217 
G01 X-97.5273 Y33.4551 
G01 X-97.6853 Y33.5205 
G01 X-97.8275 Y33.6155 
G01 X-97.9485 Y33.7365 
G01 X-98.0435 Y33.8787 
G01 X-98.1075 Y34.0333 
G01 X-98.1075 Y33.6069 
G01 X-97.1189 Y32.6183 
G01 X-95.6805 Y32.6183 
G01 X-95.5127 Y32.5849 
G01 X-95.3547 Y32.5195 
G01 X-95.2125 Y32.4245 
G01 X-95.0915 Y32.3035 
G01 X-94.9965 Y32.1613 
G01 X-94.9311 Y32.0033 
G01 X-94.8977 Y31.8355 
G01 X-94.8977 Y31.6645 
G01 X-94.9311 Y31.4967 
G01 X-94.9965 Y31.3387 
G01 X-95.0915 Y31.1965 
G01 X-95.2125 Y31.0755 
G01 X-95.3547 Y30.9805 
G01 X-95.4441 Y30.9435 
G01 X-94.2213 Y29.7207 
G01 X-94.2213 Y34.0995 
G00 Z2.5400  
G00 X-54.4449 Y45.7935 
G01 Z-0.1778 F254   
G01 X-54.8005 Y46.1491 F508   
G01 X-54.8005 Y45.2729 
G01 X-55.3978 Y44.6756 
G01 X-55.3657 Y44.6623 
G01 X-55.3121 Y44.6087 
G01 X-54.4449 Y43.7415 
G01 X-54.4449 Y45.7935 
G00 Z2.5400  
G00 X-97.6853 Y35.0595 
G01 Z-0.1778 F254   
G01 X-97.5273 Y35.1249 F508   
G01 X-97.3595 Y35.1583 
G01 X-95.6805 Y35.1583 
G01 X-95.5127 Y35.1249 
G01 X-95.3547 Y35.0595 
G01 X-95.2125 Y34.9644 
G01 X-95.0915 Y34.8435 
G01 X-94.9965 Y34.7013 
G01 X-94.9311 Y34.5433 
G01 X-94.9186 Y34.4805 
G01 X-92.7381 Y34.4805 
G01 X-92.0523 Y35.1663 
G01 X-97.6095 Y35.1663 
G01 X-97.7788 Y34.9970 
G01 X-97.6853 Y35.0595 
G00 Z2.5400  
G00 X-68.1963 Y40.8813 
G01 Z-0.1778 F254   
G01 X-67.4390 Y40.8813 F508   
G01 X-67.3869 Y41.0070 
G01 X-67.3021 Y41.1338 
G01 X-67.1942 Y41.2417 
G01 X-67.0674 Y41.3265 
G01 X-66.9264 Y41.3849 
G01 X-66.7767 Y41.4147 
G01 X-65.3033 Y41.4147 
G01 X-65.1536 Y41.3849 
G01 X-65.1029 Y41.3639 
G01 X-65.4585 Y41.7195 
G01 X-69.0345 Y41.7195 
G01 X-68.1963 Y40.8813 
G00 Z2.5400  
G00 X-68.9583 Y42.1005 
G01 Z-0.1778 F254   
G01 X-67.2111 Y42.1005 F508   
G01 X-75.2856 Y50.1750 
G01 X-76.0921 Y49.3685 
G01 X-76.1621 Y49.3395 
G01 X-81.7753 Y49.3395 
G01 X-81.7753 Y49.2091 
G01 X-82.2291 Y48.7553 
G01 X-82.7759 Y48.7553 
G01 X-80.8455 Y46.8249 
G01 X-72.5045 Y46.8249 
G01 X-72.4345 Y46.7959 
G01 X-71.9773 Y46.3387 
G01 X-71.9237 Y46.2851 
G01 X-71.8947 Y46.2151 
G01 X-71.8947 Y45.2249 
G01 X-71.9237 Y45.1549 
G01 X-72.3809 Y44.6977 
G01 X-72.3873 Y44.6913 
G01 X-71.5901 Y44.6913 
G01 X-71.5201 Y44.6623 
G01 X-71.4665 Y44.6087 
G01 X-68.9583 Y42.1005 
G00 Z2.5400  
G00 X-82.1463 Y45.6057 
G01 Z-0.1778 F254   
G01 X-82.2225 Y45.6819 F508   
G01 X-87.9805 Y45.6819 
G01 X-87.9372 Y45.6569 
G01 X-87.8860 Y45.6057 
G01 X-82.1463 Y45.6057 
G00 Z2.5400  
G00 X-64.6347 Y40.8660 
G01 Z-0.1778 F254   
G01 X-64.6049 Y40.7163 F508   
G01 X-64.6049 Y40.5637 
G01 X-64.6347 Y40.4140 
G01 X-64.6931 Y40.2730 
G01 X-64.7779 Y40.1462 
G01 X-64.8858 Y40.0383 
G01 X-65.0126 Y39.9535 
G01 X-65.1536 Y39.8951 
G01 X-65.3033 Y39.8653 
G01 X-66.7767 Y39.8653 
G01 X-66.9264 Y39.8951 
G01 X-67.0674 Y39.9535 
G01 X-67.1942 Y40.0383 
G01 X-67.3021 Y40.1462 
G01 X-67.3869 Y40.2730 
G01 X-67.4453 Y40.4140 
G01 X-67.4625 Y40.5003 
G01 X-68.3131 Y40.5003 
G01 X-68.3831 Y40.5293 
G01 X-68.4367 Y40.5829 
G01 X-69.7257 Y41.8719 
G01 X-72.6921 Y41.8719 
G01 X-72.6857 Y41.8655 
G01 X-70.1775 Y39.3573 
G01 X-64.5719 Y39.3573 
G01 X-64.6152 Y39.3823 
G01 X-64.7069 Y39.4740 
G01 X-64.7717 Y39.5863 
G01 X-64.8053 Y39.7116 
G01 X-64.8053 Y39.8412 
G01 X-64.7717 Y39.9665 
G01 X-64.7069 Y40.0788 
G01 X-64.6152 Y40.1705 
G01 X-64.5033 Y40.2351 
G01 X-64.5033 Y40.7643 
G01 X-64.6557 Y40.9167 
G01 X-64.6347 Y40.8660 
G00 Z2.5400  
G00 X-63.8935 Y39.5097 
G01 Z-0.1778 F254   
G01 X-55.5525 Y39.5097 F508   
G01 X-55.5017 Y39.5605 
G01 X-56.3271 Y39.5605 
G01 X-56.9595 Y40.1929 
G01 X-56.9595 Y40.5003 
G01 X-63.7411 Y40.5003 
G01 X-63.8111 Y40.5293 
G01 X-64.1223 Y40.8405 
G01 X-64.1223 Y40.2351 
G01 X-64.0104 Y40.1705 
G01 X-63.9187 Y40.0788 
G01 X-63.8539 Y39.9665 
G01 X-63.8203 Y39.8412 
G01 X-63.8203 Y39.7116 
G01 X-63.8539 Y39.5863 
G01 X-63.8995 Y39.5072 
G01 X-63.8935 Y39.5097 
G00 Z2.5400  
G00 X-98.0575 Y40.2625 
G01 Z-0.1778 F254   
G01 X-98.1075 Y40.3833 F508   
G01 X-98.1075 Y40.3125 
G01 X-98.0575 Y40.2625 
G00 Z2.5400  
G00 X-95.3645 Y48.2727 
G01 Z-0.1778 F254   
G01 X-95.4403 Y48.2727 F508   
G01 X-95.5103 Y48.3017 
G01 X-95.8703 Y48.6617 
G01 X-97.3595 Y48.6617 
G01 X-97.5273 Y48.6951 
G01 X-97.6853 Y48.7605 
G01 X-97.7788 Y48.8230 
G01 X-96.9999 Y48.0441 
G01 X-93.2703 Y48.0441 
G01 X-93.2057 Y48.1560 
G01 X-93.1140 Y48.2477 
G01 X-93.0707 Y48.2727 
G01 X-95.3645 Y48.2727 
G00 Z2.5400  
G00 X-92.8025 Y47.3519 
G01 Z-0.1778 F254   
G01 X-90.5831 Y45.1325 F508   
G01 X-90.4909 Y45.2247 
G01 X-89.8491 Y45.2247 
G01 X-89.3953 Y44.7709 
G01 X-89.3953 Y44.2241 
G01 X-89.3445 Y44.2749 
G01 X-89.3445 Y44.7267 
G01 X-89.5667 Y44.9489 
G01 X-89.6203 Y45.0025 
G01 X-91.2967 Y46.6789 
G01 X-91.3257 Y46.7489 
G01 X-91.3257 Y48.6129 
G01 X-91.5833 Y48.3553 
G01 X-91.6369 Y48.3017 
G01 X-91.7069 Y48.2727 
G01 X-92.5525 Y48.2727 
G01 X-92.5092 Y48.2477 
G01 X-92.4175 Y48.1560 
G01 X-92.3527 Y48.0437 
G01 X-92.3191 Y47.9184 
G01 X-92.3191 Y47.7888 
G01 X-92.3527 Y47.6635 
G01 X-92.4175 Y47.5512 
G01 X-92.5092 Y47.4595 
G01 X-92.6215 Y47.3947 
G01 X-92.7468 Y47.3611 
G01 X-92.8117 Y47.3611 
G01 X-92.8025 Y47.3519 
G00 Z2.5400  
G00 X-98.4123 Y48.8469 
G01 Z-0.1778 F254   
G01 X-97.3047 Y47.7393 F508   
G01 X-97.2339 Y47.7393 
G01 X-98.4059 Y48.9113 
G01 X-98.4123 Y48.9177 
G01 X-98.4123 Y48.8469 
G00 Z2.5400  
G00 X-97.9810 Y49.0252 
G01 Z-0.1778 F254   
G01 X-98.0435 Y49.1187 F508   
G01 X-98.1075 Y49.2733 
G01 X-98.1075 Y49.1517 
G01 X-97.9810 Y49.0252 
G00 Z2.5400  
G00 X-91.5543 Y49.7613 
G01 Z-0.1778 F254   
G01 X-91.3321 Y49.5391 F508   
G01 X-91.3257 Y49.5327 
G01 X-91.3257 Y55.2145 
G01 X-91.3507 Y55.1712 
G01 X-91.4424 Y55.0795 
G01 X-91.5543 Y55.0149 
G01 X-91.5543 Y49.7613 
G00 Z2.5400  
G00 X-97.3595 Y52.9383 
G01 Z-0.1778 F254   
G01 X-95.6805 Y52.9383 F508   
G01 X-95.5127 Y52.9049 
G01 X-95.3547 Y52.8395 
G01 X-95.2125 Y52.7445 
G01 X-95.0915 Y52.6235 
G01 X-94.9965 Y52.4813 
G01 X-94.9311 Y52.3233 
G01 X-94.8977 Y52.1555 
G01 X-94.8977 Y51.9845 
G01 X-94.9311 Y51.8167 
G01 X-94.9965 Y51.6587 
G01 X-95.0915 Y51.5165 
G01 X-95.2125 Y51.3955 
G01 X-95.3547 Y51.3005 
G01 X-95.5127 Y51.2351 
G01 X-95.6805 Y51.2017 
G01 X-97.1189 Y51.2017 
G01 X-98.1075 Y50.2131 
G01 X-98.1075 Y49.7867 
G01 X-98.0435 Y49.9413 
G01 X-97.9485 Y50.0835 
G01 X-97.8275 Y50.2045 
G01 X-97.6853 Y50.2995 
G01 X-97.5273 Y50.3649 
G01 X-97.3595 Y50.3983 
G01 X-95.6805 Y50.3983 
G01 X-95.5127 Y50.3649 
G01 X-95.3547 Y50.2995 
G01 X-95.2125 Y50.2045 
G01 X-95.0915 Y50.0835 
G01 X-94.9965 Y49.9413 
G01 X-94.9311 Y49.7833 
G01 X-94.8977 Y49.6155 
G01 X-94.8977 Y49.4445 
G01 X-94.9311 Y49.2767 
G01 X-94.9965 Y49.1187 
G01 X-95.0915 Y48.9765 
G01 X-95.2125 Y48.8555 
G01 X-95.3547 Y48.7605 
G01 X-95.4082 Y48.7384 
G01 X-95.3235 Y48.6537 
G01 X-92.3087 Y48.6537 
G01 X-92.3520 Y48.6787 
G01 X-92.4437 Y48.7704 
G01 X-92.5085 Y48.8827 
G01 X-92.5421 Y49.0080 
G01 X-92.5421 Y49.1376 
G01 X-92.5085 Y49.2629 
G01 X-92.4437 Y49.3752 
G01 X-92.3520 Y49.4669 
G01 X-92.2401 Y49.5315 
G01 X-92.2401 Y51.2799 
G01 X-95.9719 Y55.0117 
G01 X-97.3595 Y55.0117 
G01 X-97.5273 Y55.0451 
G01 X-97.6853 Y55.1105 
G01 X-97.8275 Y55.2055 
G01 X-97.9485 Y55.3265 
G01 X-98.0435 Y55.4687 
G01 X-98.1089 Y55.6267 
G01 X-98.1423 Y55.7945 
G01 X-98.1423 Y55.9655 
G01 X-98.1089 Y56.1333 
G01 X-98.0435 Y56.2913 
G01 X-97.9485 Y56.4335 
G01 X-97.8275 Y56.5545 
G01 X-97.6853 Y56.6495 
G01 X-97.5273 Y56.7149 
G01 X-97.3595 Y56.7483 
G01 X-95.6805 Y56.7483 
G01 X-95.5127 Y56.7149 
G01 X-95.3547 Y56.6495 
G01 X-95.2125 Y56.5545 
G01 X-95.0915 Y56.4335 
G01 X-94.9965 Y56.2913 
G01 X-94.9311 Y56.1333 
G01 X-94.8977 Y55.9655 
G01 X-94.8977 Y55.7945 
G01 X-94.9311 Y55.6267 
G01 X-94.9965 Y55.4687 
G01 X-95.0915 Y55.3265 
G01 X-95.2125 Y55.2055 
G01 X-95.3547 Y55.1105 
G01 X-95.4800 Y55.0586 
G01 X-91.9353 Y51.5139 
G01 X-91.9353 Y55.0149 
G01 X-92.0472 Y55.0795 
G01 X-92.1389 Y55.1712 
G01 X-92.2037 Y55.2835 
G01 X-92.2373 Y55.4088 
G01 X-92.2373 Y55.5384 
G01 X-92.2037 Y55.6637 
G01 X-92.1389 Y55.7760 
G01 X-92.0472 Y55.8677 
G01 X-91.9349 Y55.9325 
G01 X-91.8096 Y55.9661 
G01 X-91.6800 Y55.9661 
G01 X-91.5547 Y55.9325 
G01 X-91.4424 Y55.8677 
G01 X-91.3507 Y55.7760 
G01 X-91.3257 Y55.7327 
G01 X-91.3257 Y56.7385 
G01 X-91.3507 Y56.6952 
G01 X-91.4424 Y56.6035 
G01 X-91.5547 Y56.5387 
G01 X-91.6800 Y56.5051 
G01 X-91.8096 Y56.5051 
G01 X-91.9349 Y56.5387 
G01 X-92.0472 Y56.6035 
G01 X-92.1389 Y56.6952 
G01 X-92.2035 Y56.8071 
G01 X-95.1355 Y56.8071 
G01 X-95.2055 Y56.8361 
G01 X-95.9211 Y57.5517 
G01 X-97.3595 Y57.5517 
G01 X-97.5273 Y57.5851 
G01 X-97.6853 Y57.6505 
G01 X-97.8275 Y57.7455 
G01 X-97.9485 Y57.8665 
G01 X-98.0435 Y58.0087 
G01 X-98.1089 Y58.1667 
G01 X-98.1423 Y58.3345 
G01 X-98.1423 Y58.5055 
G01 X-98.1089 Y58.6733 
G01 X-98.0435 Y58.8313 
G01 X-97.9485 Y58.9735 
G01 X-97.8275 Y59.0945 
G01 X-97.6853 Y59.1895 
G01 X-97.5273 Y59.2549 
G01 X-97.3595 Y59.2883 
G01 X-95.6805 Y59.2883 
G01 X-95.5127 Y59.2549 
G01 X-95.3547 Y59.1895 
G01 X-95.2125 Y59.0945 
G01 X-95.0915 Y58.9735 
G01 X-94.9965 Y58.8313 
G01 X-94.9311 Y58.6733 
G01 X-94.8977 Y58.5055 
G01 X-94.8977 Y58.3345 
G01 X-94.9311 Y58.1667 
G01 X-94.9965 Y58.0087 
G01 X-95.0915 Y57.8665 
G01 X-95.2125 Y57.7455 
G01 X-95.3547 Y57.6505 
G01 X-95.4441 Y57.6135 
G01 X-95.0187 Y57.1881 
G01 X-92.2035 Y57.1881 
G01 X-92.1389 Y57.3000 
G01 X-92.0472 Y57.3917 
G01 X-91.9349 Y57.4565 
G01 X-91.8096 Y57.4901 
G01 X-91.6800 Y57.4901 
G01 X-91.5602 Y57.4580 
G01 X-92.6147 Y58.5125 
G01 X-92.6683 Y58.5661 
G01 X-96.5771 Y62.4749 
G01 X-96.6307 Y62.5285 
G01 X-96.6597 Y62.5985 
G01 X-96.6597 Y62.6317 
G01 X-97.3595 Y62.6317 
G01 X-97.5273 Y62.6651 
G01 X-97.6853 Y62.7305 
G01 X-97.8275 Y62.8255 
G01 X-97.9485 Y62.9465 
G01 X-98.0435 Y63.0887 
G01 X-98.1089 Y63.2467 
G01 X-98.1423 Y63.4145 
G01 X-98.1423 Y63.5855 
G01 X-98.1089 Y63.7533 
G01 X-98.0435 Y63.9113 
G01 X-97.9485 Y64.0535 
G01 X-97.8275 Y64.1745 
G01 X-97.6853 Y64.2695 
G01 X-97.5273 Y64.3349 
G01 X-97.3595 Y64.3683 
G01 X-95.6805 Y64.3683 
G01 X-95.5127 Y64.3349 
G01 X-95.3547 Y64.2695 
G01 X-95.2125 Y64.1745 
G01 X-95.0915 Y64.0535 
G01 X-94.9965 Y63.9113 
G01 X-94.9311 Y63.7533 
G01 X-94.8977 Y63.5855 
G01 X-94.8977 Y63.4145 
G01 X-94.9311 Y63.2467 
G01 X-94.9965 Y63.0887 
G01 X-95.0915 Y62.9465 
G01 X-95.2125 Y62.8255 
G01 X-95.3547 Y62.7305 
G01 X-95.5127 Y62.6651 
G01 X-95.6805 Y62.6317 
G01 X-96.1951 Y62.6317 
G01 X-92.5068 Y58.9434 
G01 X-81.3843 Y70.0659 
G01 X-92.2755 Y70.0659 
G01 X-95.4800 Y66.8614 
G01 X-95.3547 Y66.8095 
G01 X-95.2125 Y66.7144 
G01 X-95.0915 Y66.5935 
G01 X-94.9965 Y66.4513 
G01 X-94.9311 Y66.2933 
G01 X-94.8977 Y66.1255 
G01 X-94.8977 Y65.9545 
G01 X-94.9311 Y65.7867 
G01 X-94.9965 Y65.6287 
G01 X-95.0915 Y65.4865 
G01 X-95.2125 Y65.3655 
G01 X-95.3547 Y65.2705 
G01 X-95.5127 Y65.2051 
G01 X-95.6805 Y65.1717 
G01 X-96.8649 Y65.1717 
G01 X-98.4123 Y63.6243 
G01 X-98.4123 Y50.4471 
G01 X-97.5959 Y51.2635 
G01 X-97.6853 Y51.3005 
G01 X-97.8275 Y51.3955 
G01 X-97.9485 Y51.5165 
G01 X-98.0435 Y51.6587 
G01 X-98.1089 Y51.8167 
G01 X-98.1423 Y51.9845 
G01 X-98.1423 Y52.1555 
G01 X-98.1089 Y52.3233 
G01 X-98.0435 Y52.4813 
G01 X-97.9485 Y52.6235 
G01 X-97.8275 Y52.7445 
G01 X-97.6853 Y52.8395 
G01 X-97.5273 Y52.9049 
G01 X-97.3595 Y52.9383 
G00 Z2.5400  
G00 X-76.7717 Y56.9595 
G01 Z-0.1778 F254   
G01 X-76.8069 Y56.9595 F508   
G01 X-76.6944 Y56.8471 
G01 X-76.5696 Y56.8805 
G01 X-76.4400 Y56.8805 
G01 X-76.3147 Y56.8469 
G01 X-76.2024 Y56.7821 
G01 X-76.1107 Y56.6904 
G01 X-76.0459 Y56.5781 
G01 X-76.0123 Y56.4528 
G01 X-76.0123 Y56.3232 
G01 X-76.0444 Y56.2034 
G01 X-75.5582 Y56.6896 
G01 X-75.6780 Y56.6575 
G01 X-75.8076 Y56.6575 
G01 X-75.9329 Y56.6911 
G01 X-76.0452 Y56.7559 
G01 X-76.1369 Y56.8476 
G01 X-76.2015 Y56.9595 
G01 X-76.7717 Y56.9595 
G00 Z2.5400  
G00 X-72.5805 Y59.6673 
G01 Z-0.1778 F254   
G01 X-72.5805 Y67.0917 F508   
G01 X-73.1267 Y67.0917 
G01 X-73.1687 Y67.1091 
G01 X-73.2009 Y67.1413 
G01 X-73.2183 Y67.1833 
G01 X-73.2183 Y68.7015 
G01 X-79.8195 Y62.1003 
G01 X-79.8195 Y61.7235 
G01 X-79.7076 Y61.6589 
G01 X-79.6159 Y61.5672 
G01 X-79.5511 Y61.4549 
G01 X-79.5175 Y61.3296 
G01 X-79.5175 Y61.2000 
G01 X-79.5511 Y61.0747 
G01 X-79.6159 Y60.9624 
G01 X-79.7076 Y60.8707 
G01 X-79.8199 Y60.8059 
G01 X-79.9452 Y60.7723 
G01 X-80.0748 Y60.7723 
G01 X-80.1946 Y60.8044 
G01 X-76.7307 Y57.3405 
G01 X-76.2015 Y57.3405 
G01 X-76.1369 Y57.4524 
G01 X-76.0452 Y57.5441 
G01 X-75.9329 Y57.6089 
G01 X-75.8076 Y57.6425 
G01 X-75.6780 Y57.6425 
G01 X-75.5527 Y57.6089 
G01 X-75.4404 Y57.5441 
G01 X-75.3487 Y57.4524 
G01 X-75.2839 Y57.3401 
G01 X-75.2503 Y57.2148 
G01 X-75.2503 Y57.0852 
G01 X-75.2824 Y56.9654 
G01 X-72.5805 Y59.6673 
G00 Z2.5400  
G00 X-77.6723 Y59.3293 
G01 Z-0.1778 F254   
G01 X-77.6723 Y62.5907 F508   
G01 X-77.6549 Y62.6327 
G01 X-77.6227 Y62.6649 
G01 X-77.5807 Y62.6823 
G01 X-74.3193 Y62.6823 
G01 X-74.2773 Y62.6649 
G01 X-74.2451 Y62.6327 
G01 X-74.2277 Y62.5907 
G01 X-74.2277 Y59.3293 
G01 X-74.2451 Y59.2873 
G01 X-74.2773 Y59.2551 
G01 X-74.3193 Y59.2377 
G01 X-77.5807 Y59.2377 
G01 X-77.6227 Y59.2551 
G01 X-77.6549 Y59.2873 
G01 X-77.6723 Y59.3293 
G00 Z2.5400  
G00 X-80.4319 Y60.4152 
G01 Z-0.1778 F254   
G01 X-80.4319 Y60.2856 F508   
G01 X-80.4655 Y60.1603 
G01 X-80.5303 Y60.0480 
G01 X-80.6220 Y59.9563 
G01 X-80.7343 Y59.8915 
G01 X-80.8596 Y59.8579 
G01 X-80.9892 Y59.8579 
G01 X-81.1145 Y59.8915 
G01 X-81.2268 Y59.9563 
G01 X-81.3185 Y60.0480 
G01 X-81.3831 Y60.1599 
G01 X-81.8767 Y60.1599 
G01 X-81.9467 Y60.1889 
G01 X-82.2225 Y60.4647 
G01 X-82.8267 Y60.4647 
G01 X-82.2291 Y60.4647 
G01 X-81.7753 Y60.0109 
G01 X-81.7753 Y59.7789 
G01 X-79.7079 Y59.7789 
G01 X-80.4640 Y60.5350 
G01 X-80.4319 Y60.4152 
G00 Z2.5400  
G00 X-90.0303 Y55.3847 
G01 Z-0.1778 F254   
G01 X-89.8491 Y55.3847 F508   
G01 X-89.3953 Y54.9309 
G01 X-89.3953 Y54.2891 
G01 X-89.8491 Y53.8353 
G01 X-90.0303 Y53.8353 
G01 X-90.0303 Y50.3047 
G01 X-89.8491 Y50.3047 
G01 X-89.3953 Y49.8509 
G01 X-89.3953 Y49.2091 
G01 X-89.4367 Y49.1677 
G01 X-87.3987 Y47.1297 
G01 X-84.0791 Y47.1297 
G01 X-84.1224 Y47.1547 
G01 X-84.2141 Y47.2464 
G01 X-84.2789 Y47.3587 
G01 X-84.3125 Y47.4840 
G01 X-84.3125 Y47.6136 
G01 X-84.2789 Y47.7389 
G01 X-84.2141 Y47.8512 
G01 X-84.1224 Y47.9429 
G01 X-84.0105 Y48.0075 
G01 X-84.0105 Y59.7787 
G01 X-83.9815 Y59.8487 
G01 X-83.9279 Y59.9023 
G01 X-83.0607 Y60.7695 
G01 X-86.3319 Y60.7695 
G01 X-88.6877 Y58.4137 
G01 X-88.7413 Y58.3601 
G01 X-88.8113 Y58.3311 
G01 X-89.1525 Y58.3311 
G01 X-89.2171 Y58.2192 
G01 X-89.3088 Y58.1275 
G01 X-89.4211 Y58.0627 
G01 X-89.5464 Y58.0291 
G01 X-89.6760 Y58.0291 
G01 X-89.8013 Y58.0627 
G01 X-89.9136 Y58.1275 
G01 X-90.0053 Y58.2192 
G01 X-90.0303 Y58.2625 
G01 X-90.0303 Y55.3847 
G00 Z2.5400  
G00 X-90.0303 Y58.9153 
G01 Z-0.1778 F254   
G01 X-90.0303 Y58.7807 F508   
G01 X-90.0053 Y58.8240 
G01 X-89.9140 Y58.9153 
G01 X-90.0303 Y58.9153 
G00 Z2.5400  
G00 X-86.5187 Y61.1215 
G01 Z-0.1778 F254   
G01 X-86.4487 Y61.1505 F508   
G01 X-80.5817 Y61.1505 
G01 X-80.5117 Y61.1215 
G01 X-80.4704 Y61.0802 
G01 X-80.5025 Y61.2000 
G01 X-80.5025 Y61.3296 
G01 X-80.4689 Y61.4549 
G01 X-80.4041 Y61.5672 
G01 X-80.3124 Y61.6589 
G01 X-80.2005 Y61.7235 
G01 X-80.2005 Y62.2171 
G01 X-80.1715 Y62.2871 
G01 X-80.1179 Y62.3407 
G01 X-73.3071 Y69.1515 
G01 X-78.8643 Y69.1515 
G01 X-88.3901 Y59.6257 
G01 X-88.3567 Y59.5008 
G01 X-88.3567 Y59.3712 
G01 X-88.3888 Y59.2514 
G01 X-86.5187 Y61.1215 
G00 Z2.5400  
G00 X-80.0835 Y69.4563 
G01 Z-0.1778 F254   
G01 X-89.4621 Y60.0777 F508   
G01 X-89.3953 Y60.0109 
G01 X-89.3953 Y59.3691 
G01 X-89.7775 Y58.9869 
G01 X-89.6760 Y59.0141 
G01 X-89.5464 Y59.0141 
G01 X-89.4211 Y58.9805 
G01 X-89.3088 Y58.9157 
G01 X-89.2171 Y58.8240 
G01 X-89.1525 Y58.7121 
G01 X-88.9281 Y58.7121 
G01 X-88.6646 Y58.9756 
G01 X-88.7844 Y58.9435 
G01 X-88.9140 Y58.9435 
G01 X-89.0393 Y58.9771 
G01 X-89.1516 Y59.0419 
G01 X-89.2433 Y59.1336 
G01 X-89.3081 Y59.2459 
G01 X-89.3417 Y59.3712 
G01 X-89.3417 Y59.5008 
G01 X-89.3081 Y59.6261 
G01 X-89.2433 Y59.7384 
G01 X-89.1516 Y59.8301 
G01 X-89.0393 Y59.8949 
G01 X-88.9140 Y59.9285 
G01 X-88.7844 Y59.9285 
G01 X-88.6595 Y59.8951 
G01 X-79.0983 Y69.4563 
G01 X-80.0835 Y69.4563 
G00 Z2.5400  
G00 X-72.2476 Y30.2895 
G01 Z-0.1778 F254   
G01 X-72.2547 Y30.2540 F508   
G01 X-72.3131 Y30.1130 
G01 X-72.3979 Y29.9862 
G01 X-72.5058 Y29.8783 
G01 X-72.6326 Y29.7935 
G01 X-72.7229 Y29.7561 
G01 X-66.9771 Y29.7561 
G01 X-67.0674 Y29.7935 
G01 X-67.1942 Y29.8783 
G01 X-67.3021 Y29.9862 
G01 X-67.3869 Y30.1130 
G01 X-67.4453 Y30.2540 
G01 X-67.4751 Y30.4037 
G01 X-67.4751 Y30.5563 
G01 X-67.4453 Y30.7060 
G01 X-67.4243 Y30.7567 
G01 X-67.8625 Y30.3185 
G01 X-67.9325 Y30.2895 
G01 X-68.0083 Y30.2895 
G01 X-72.2476 Y30.2895 
G00 Z2.5400  
G00 X-81.9821 Y60.7631 
G01 Z-0.1778 F254   
G01 X-81.7599 Y60.5409 F508   
G01 X-81.3831 Y60.5409 
G01 X-81.3185 Y60.6528 
G01 X-81.2268 Y60.7445 
G01 X-81.1835 Y60.7695 
G01 X-81.9885 Y60.7695 
G01 X-81.9821 Y60.7631 
G00 Z2.5400  
G00 X-66.8247 Y44.3865 
G01 Z-0.1778 F254   
G01 X-65.0775 Y44.3865 F508   
G01 X-65.3061 Y44.6151 
G01 X-67.0533 Y44.6151 
G01 X-66.8247 Y44.3865 
G00 Z2.5400  
G00 X-90.9447 Y54.2891 
G01 Z-0.1778 F254   
G01 X-90.9447 Y54.9309 F508   
G01 X-90.4909 Y55.3847 
G01 X-90.4113 Y55.3847 
G01 X-90.4113 Y58.9153 
G01 X-90.4909 Y58.9153 
G01 X-90.9447 Y59.3691 
G01 X-90.9447 Y59.9667 
G01 X-92.2374 Y58.6740 
G01 X-91.0273 Y57.4639 
G01 X-90.9737 Y57.4103 
G01 X-90.9447 Y57.3403 
G01 X-90.9447 Y46.8657 
G01 X-89.4588 Y45.3798 
G01 X-88.8047 Y46.0339 
G01 X-88.7347 Y46.0629 
G01 X-82.1463 Y46.0629 
G01 X-82.8321 Y46.7487 
G01 X-87.5155 Y46.7487 
G01 X-87.5855 Y46.7777 
G01 X-89.7061 Y48.8983 
G01 X-89.8491 Y48.7553 
G01 X-90.4909 Y48.7553 
G01 X-90.9447 Y49.2091 
G01 X-90.9447 Y49.8509 
G01 X-90.4909 Y50.3047 
G01 X-90.4113 Y50.3047 
G01 X-90.4113 Y53.8353 
G01 X-90.4909 Y53.8353 
G01 X-90.9447 Y54.2891 
G00 Z2.5400  
G00 X-81.1503 Y69.7611 
G01 Z-0.1778 F254   
G01 X-90.4467 Y60.4647 F508   
G01 X-89.8491 Y60.4647 
G01 X-89.7315 Y60.3471 
G01 X-80.3175 Y69.7611 
G01 X-81.1503 Y69.7611 
G00 Z2.5400  
G00 X-83.3247 Y54.2891 
G01 Z-0.1778 F254   
G01 X-83.3247 Y54.9309 F508   
G01 X-82.8709 Y55.3847 
G01 X-82.2291 Y55.3847 
G01 X-81.7753 Y54.9309 
G01 X-81.7753 Y54.9021 
G01 X-77.3457 Y54.9021 
G01 X-76.3202 Y55.9276 
G01 X-76.4400 Y55.8955 
G01 X-76.5696 Y55.8955 
G01 X-76.6949 Y55.9291 
G01 X-76.8072 Y55.9939 
G01 X-76.8989 Y56.0856 
G01 X-76.9637 Y56.1979 
G01 X-76.9973 Y56.3232 
G01 X-76.9973 Y56.4528 
G01 X-76.9639 Y56.5776 
G01 X-79.7841 Y59.3979 
G01 X-81.7753 Y59.3979 
G01 X-81.7753 Y59.3691 
G01 X-82.2291 Y58.9153 
G01 X-82.8709 Y58.9153 
G01 X-83.3247 Y59.3691 
G01 X-83.3247 Y59.9667 
G01 X-83.6295 Y59.6619 
G01 X-83.6295 Y49.9899 
G01 X-83.6231 Y49.9963 
G01 X-83.0135 Y50.6059 
G01 X-82.9435 Y50.6349 
G01 X-81.1557 Y50.6349 
G01 X-77.2695 Y54.5211 
G01 X-81.7753 Y54.5211 
G01 X-81.7753 Y54.2891 
G01 X-82.2291 Y53.8353 
G01 X-82.8709 Y53.8353 
G01 X-83.3247 Y54.2891 
G00 Z2.5400  
G00 X-76.9241 Y54.7497 
G01 Z-0.1778 F254   
G01 X-71.4377 Y54.7497 F508   
G01 X-71.3677 Y54.7207 
G01 X-71.3141 Y54.6671 
G01 X-70.7183 Y54.0713 
G01 X-70.7183 Y54.2367 
G01 X-70.7009 Y54.2787 
G01 X-70.6687 Y54.3109 
G01 X-70.6267 Y54.3283 
G01 X-69.0733 Y54.3283 
G01 X-69.0313 Y54.3109 
G01 X-68.9991 Y54.2787 
G01 X-68.9817 Y54.2367 
G01 X-68.9817 Y52.6833 
G01 X-68.9991 Y52.6413 
G01 X-69.0313 Y52.6091 
G01 X-69.0733 Y52.5917 
G01 X-69.6087 Y52.5917 
G01 X-69.6087 Y47.1705 
G01 X-67.8561 Y45.4179 
G01 X-67.8561 Y52.5917 
G01 X-68.1267 Y52.5917 
G01 X-68.1687 Y52.6091 
G01 X-68.2009 Y52.6413 
G01 X-68.2183 Y52.6833 
G01 X-68.2183 Y54.0805 
G01 X-69.4209 Y55.2831 
G01 X-75.1317 Y55.2831 
G01 X-75.1963 Y55.1712 
G01 X-75.2880 Y55.0795 
G01 X-75.4003 Y55.0147 
G01 X-75.5256 Y54.9811 
G01 X-75.6552 Y54.9811 
G01 X-75.7805 Y55.0147 
G01 X-75.8928 Y55.0795 
G01 X-75.9845 Y55.1712 
G01 X-76.0493 Y55.2835 
G01 X-76.0829 Y55.4088 
G01 X-76.0829 Y55.5384 
G01 X-76.0508 Y55.6582 
G01 X-76.9593 Y54.7497 
G01 X-76.9241 Y54.7497 
G00 Z2.5400  
G00 X-81.4551 Y45.9105 
G01 Z-0.1778 F254   
G01 X-75.0724 Y45.9105 F508   
G01 X-75.0653 Y45.9460 
G01 X-75.0069 Y46.0870 
G01 X-74.9221 Y46.2138 
G01 X-74.8142 Y46.3217 
G01 X-74.6874 Y46.4065 
G01 X-74.5971 Y46.4439 
G01 X-80.9623 Y46.4439 
G01 X-81.0323 Y46.4729 
G01 X-81.0859 Y46.5265 
G01 X-83.6295 Y49.0701 
G01 X-83.6295 Y48.0075 
G01 X-83.5176 Y47.9429 
G01 X-83.4259 Y47.8512 
G01 X-83.3611 Y47.7389 
G01 X-83.3275 Y47.6136 
G01 X-83.3275 Y47.4840 
G01 X-83.3611 Y47.3587 
G01 X-83.4259 Y47.2464 
G01 X-83.5176 Y47.1547 
G01 X-83.5609 Y47.1297 
G01 X-82.7153 Y47.1297 
G01 X-82.6453 Y47.1007 
G01 X-82.5917 Y47.0471 
G01 X-81.4551 Y45.9105 
G00 Z2.5400  
G00 X-80.9979 Y44.9961 
G01 Z-0.1778 F254   
G01 X-74.5971 Y44.9961 F508   
G01 X-74.6874 Y45.0335 
G01 X-74.8142 Y45.1183 
G01 X-74.9221 Y45.2262 
G01 X-75.0069 Y45.3530 
G01 X-75.0653 Y45.4940 
G01 X-75.0724 Y45.5295 
G01 X-81.5313 Y45.5295 
G01 X-80.9979 Y44.9961 
G00 Z2.5400  
G00 X-65.6753 Y54.3623 
G01 Z-0.1778 F254   
G01 X-65.6463 Y54.2923 F508   
G01 X-65.6463 Y53.5713 
G01 X-57.3405 Y45.2655 
G01 X-57.3405 Y54.5971 
G01 X-57.3115 Y54.6671 
G01 X-56.7526 Y55.2260 
G01 X-56.9595 Y55.4329 
G01 X-56.9595 Y56.3271 
G01 X-56.3970 Y56.8896 
G01 X-62.0277 Y62.5203 
G01 X-62.0277 Y59.3293 
G01 X-62.0451 Y59.2873 
G01 X-62.0773 Y59.2551 
G01 X-62.1193 Y59.2377 
G01 X-65.3807 Y59.2377 
G01 X-65.4227 Y59.2551 
G01 X-65.4549 Y59.2873 
G01 X-65.4723 Y59.3293 
G01 X-65.4723 Y62.5907 
G01 X-65.4549 Y62.6327 
G01 X-65.4227 Y62.6649 
G01 X-65.3807 Y62.6823 
G01 X-62.1897 Y62.6823 
G01 X-62.2581 Y62.7507 
G01 X-62.3695 Y62.7507 
G01 X-62.4395 Y62.7797 
G01 X-62.4931 Y62.8333 
G01 X-66.7515 Y67.0917 
G01 X-68.1267 Y67.0917 
G01 X-68.1687 Y67.1091 
G01 X-68.2009 Y67.1413 
G01 X-68.2183 Y67.1833 
G01 X-68.2183 Y68.7367 
G01 X-68.2009 Y68.7787 
G01 X-68.1687 Y68.8109 
G01 X-68.1267 Y68.8283 
G01 X-66.5733 Y68.8283 
G01 X-66.5313 Y68.8109 
G01 X-66.4991 Y68.7787 
G01 X-66.4817 Y68.7367 
G01 X-66.4817 Y67.3607 
G01 X-62.2527 Y63.1317 
G01 X-62.1413 Y63.1317 
G01 X-62.0713 Y63.1027 
G01 X-56.9595 Y57.9909 
G01 X-56.9595 Y58.8671 
G01 X-56.3271 Y59.4995 
G01 X-55.5017 Y59.4995 
G01 X-64.8489 Y68.8467 
G01 X-73.0731 Y68.8467 
G01 X-73.0915 Y68.8283 
G01 X-71.5733 Y68.8283 
G01 X-71.5313 Y68.8109 
G01 X-71.4991 Y68.7787 
G01 X-71.4817 Y68.7367 
G01 X-71.4817 Y67.1833 
G01 X-71.4991 Y67.1413 
G01 X-71.5313 Y67.1091 
G01 X-71.5733 Y67.0917 
G01 X-72.1995 Y67.0917 
G01 X-72.1995 Y59.7789 
G01 X-71.1329 Y59.7789 
G01 X-71.0629 Y59.7499 
G01 X-71.0093 Y59.6963 
G01 X-65.6753 Y54.3623 
G00 Z2.5400  
G00 X-65.3033 Y46.4947 
G01 Z-0.1778 F254   
G01 X-65.1536 Y46.4649 F508   
G01 X-65.0126 Y46.4065 
G01 X-64.8858 Y46.3217 
G01 X-64.7779 Y46.2138 
G01 X-64.6931 Y46.0870 
G01 X-64.6347 Y45.9460 
G01 X-64.6049 Y45.7963 
G01 X-64.6049 Y45.6437 
G01 X-64.6347 Y45.4940 
G01 X-64.6931 Y45.3530 
G01 X-64.7779 Y45.2262 
G01 X-64.8858 Y45.1183 
G01 X-65.0126 Y45.0335 
G01 X-65.1461 Y44.9782 
G01 X-65.1193 Y44.9671 
G01 X-65.0657 Y44.9135 
G01 X-62.8623 Y42.7101 
G01 X-60.8091 Y42.7101 
G01 X-60.7445 Y42.8220 
G01 X-60.6528 Y42.9137 
G01 X-60.5405 Y42.9785 
G01 X-60.4152 Y43.0121 
G01 X-60.2856 Y43.0121 
G01 X-60.1603 Y42.9785 
G01 X-60.0480 Y42.9137 
G01 X-59.9563 Y42.8220 
G01 X-59.8915 Y42.7097 
G01 X-59.8579 Y42.5844 
G01 X-59.8579 Y42.4548 
G01 X-59.8915 Y42.3295 
G01 X-59.9563 Y42.2172 
G01 X-60.0480 Y42.1255 
G01 X-60.0913 Y42.1005 
G01 X-55.4001 Y42.1005 
G01 X-54.7497 Y42.7509 
G01 X-54.7497 Y43.5075 
G01 X-54.8005 Y43.5583 
G01 X-54.8005 Y42.7329 
G01 X-55.4329 Y42.1005 
G01 X-56.3271 Y42.1005 
G01 X-56.9595 Y42.7329 
G01 X-56.9595 Y43.6271 
G01 X-56.6002 Y43.9864 
G01 X-65.9447 Y53.3309 
G01 X-65.9511 Y53.3373 
G01 X-65.9511 Y46.4947 
G01 X-65.3033 Y46.4947 
G00 Z2.5400  
G00 X-68.2779 Y56.4261 
G01 Z-0.1778 F254   
G01 X-71.2497 Y59.3979 F508   
G01 X-72.3111 Y59.3979 
G01 X-75.0130 Y56.6960 
G01 X-74.8932 Y56.7281 
G01 X-74.7636 Y56.7281 
G01 X-74.6383 Y56.6945 
G01 X-74.5260 Y56.6297 
G01 X-74.4343 Y56.5380 
G01 X-74.3697 Y56.4261 
G01 X-68.2779 Y56.4261 
G00 Z2.5400  
G00 X-75.6552 Y55.9661 
G01 Z-0.1778 F254   
G01 X-75.5256 Y55.9661 F508   
G01 X-75.4003 Y55.9325 
G01 X-75.2880 Y55.8677 
G01 X-75.1963 Y55.7760 
G01 X-75.1317 Y55.6641 
G01 X-69.3041 Y55.6641 
G01 X-69.2341 Y55.6351 
G01 X-67.9273 Y54.3283 
G01 X-66.6373 Y54.3283 
G01 X-68.3541 Y56.0451 
G01 X-74.3697 Y56.0451 
G01 X-74.4343 Y55.9332 
G01 X-74.5260 Y55.8415 
G01 X-74.6383 Y55.7767 
G01 X-74.7636 Y55.7431 
G01 X-74.8932 Y55.7431 
G01 X-75.0185 Y55.7767 
G01 X-75.1308 Y55.8415 
G01 X-75.2225 Y55.9332 
G01 X-75.2873 Y56.0455 
G01 X-75.3209 Y56.1708 
G01 X-75.3209 Y56.3004 
G01 X-75.2888 Y56.4202 
G01 X-75.7750 Y55.9340 
G01 X-75.6552 Y55.9661 
G00 Z2.5400  
G00 X-66.4817 Y52.6833 
G01 Z-0.1778 F254   
G01 X-66.4991 Y52.6413 F508   
G01 X-66.5313 Y52.6091 
G01 X-66.5733 Y52.5917 
G01 X-67.4751 Y52.5917 
G01 X-67.4751 Y45.4941 
G01 X-67.4243 Y45.4433 
G01 X-67.4453 Y45.4940 
G01 X-67.4751 Y45.6437 
G01 X-67.4751 Y45.7963 
G01 X-67.4453 Y45.9460 
G01 X-67.3869 Y46.0870 
G01 X-67.3021 Y46.2138 
G01 X-67.1942 Y46.3217 
G01 X-67.0674 Y46.4065 
G01 X-66.9264 Y46.4649 
G01 X-66.7767 Y46.4947 
G01 X-66.3321 Y46.4947 
G01 X-66.3321 Y54.0231 
G01 X-66.4817 Y54.1727 
G01 X-66.4817 Y52.6833 
G00 Z2.5400  
G00 X-56.3271 Y44.2595 
G01 Z-0.1778 F254   
G01 X-55.5017 Y44.2595 F508   
G01 X-55.5525 Y44.3103 
G01 X-56.3853 Y44.3103 
G01 X-56.3308 Y44.2558 
G01 X-56.3271 Y44.2595 
G00 Z2.5400  
G00 X-94.5325 Y27.1363 
G01 Z-0.1778 F254   
G01 X-94.5261 Y27.1299 F508   
G01 X-94.5261 Y27.9349 
G01 X-94.5511 Y27.8916 
G01 X-94.6428 Y27.7999 
G01 X-94.7551 Y27.7351 
G01 X-94.8804 Y27.7015 
G01 X-95.0100 Y27.7015 
G01 X-95.1298 Y27.7336 
G01 X-94.5325 Y27.1363 
G00 Z2.5400  
G00 X-95.5169 Y28.0035 
G01 Z-0.1778 F254   
G01 X-95.5927 Y28.0035 F508   
G01 X-95.6627 Y28.0325 
G01 X-95.9719 Y28.3417 
G01 X-97.3595 Y28.3417 
G01 X-97.5273 Y28.3751 
G01 X-97.6515 Y28.4265 
G01 X-97.1523 Y27.9273 
G01 X-95.3645 Y27.9273 
G01 X-95.3585 Y27.9248 
G01 X-95.4039 Y28.0035 
G01 X-95.5169 Y28.0035 
G00 Z2.5400  
G00 X-95.4800 Y28.3886 
G01 Z-0.1778 F254   
G01 X-95.4759 Y28.3845 F508   
G01 X-95.4039 Y28.3845 
G01 X-95.3769 Y28.4314 
G01 X-95.4800 Y28.3886 
G00 Z2.5400  
G00 X-97.3595 Y30.0783 
G01 Z-0.1778 F254   
G01 X-95.6805 Y30.0783 F508   
G01 X-95.5127 Y30.0449 
G01 X-95.3547 Y29.9795 
G01 X-95.2125 Y29.8845 
G01 X-95.0915 Y29.7635 
G01 X-94.9965 Y29.6213 
G01 X-94.9311 Y29.4633 
G01 X-94.8977 Y29.2955 
G01 X-94.8977 Y29.1245 
G01 X-94.9311 Y28.9567 
G01 X-94.9965 Y28.7987 
G01 X-95.0849 Y28.6664 
G01 X-95.0100 Y28.6865 
G01 X-94.8804 Y28.6865 
G01 X-94.7551 Y28.6529 
G01 X-94.6428 Y28.5881 
G01 X-94.5511 Y28.4964 
G01 X-94.5261 Y28.4531 
G01 X-94.5261 Y29.4867 
G01 X-95.9211 Y30.8817 
G01 X-97.3595 Y30.8817 
G01 X-97.5273 Y30.9151 
G01 X-97.6853 Y30.9805 
G01 X-97.8275 Y31.0755 
G01 X-97.9485 Y31.1965 
G01 X-98.0435 Y31.3387 
G01 X-98.1089 Y31.4967 
G01 X-98.1423 Y31.6645 
G01 X-98.1423 Y31.8355 
G01 X-98.1089 Y32.0033 
G01 X-98.0435 Y32.1613 
G01 X-97.9485 Y32.3035 
G01 X-97.8275 Y32.4245 
G01 X-97.6853 Y32.5195 
G01 X-97.5959 Y32.5565 
G01 X-98.4123 Y33.3729 
G01 X-98.4123 Y29.1873 
G01 X-98.0575 Y28.8325 
G01 X-98.1089 Y28.9567 
G01 X-98.1423 Y29.1245 
G01 X-98.1423 Y29.2955 
G01 X-98.1089 Y29.4633 
G01 X-98.0435 Y29.6213 
G01 X-97.9485 Y29.7635 
G01 X-97.8275 Y29.8845 
G01 X-97.6853 Y29.9795 
G01 X-97.5273 Y30.0449 
G01 X-97.3595 Y30.0783 
G00 Z2.5400  
G00 X-97.2285 Y27.5463 
G01 Z-0.1778 F254   
G01 X-97.2205 Y27.5383 F508   
G01 X-95.6805 Y27.5383 
G01 X-95.5127 Y27.5049 
G01 X-95.3885 Y27.4535 
G01 X-95.4813 Y27.5463 
G01 X-97.2285 Y27.5463 
G00 Z2.5400  
G00 X-94.9311 Y26.9233 
G01 Z-0.1778 F254   
G01 X-94.8977 Y26.7555 F508   
G01 X-94.8977 Y26.5845 
G01 X-94.9311 Y26.4167 
G01 X-94.9965 Y26.2587 
G01 X-95.0915 Y26.1165 
G01 X-95.2125 Y25.9955 
G01 X-95.3547 Y25.9005 
G01 X-95.5127 Y25.8351 
G01 X-95.6805 Y25.8017 
G01 X-97.2205 Y25.8017 
G01 X-98.7171 Y24.3051 
G01 X-98.7171 Y20.7291 
G01 X-98.7107 Y20.7355 
G01 X-96.8121 Y22.6341 
G01 X-96.8121 Y23.2617 
G01 X-97.3595 Y23.2617 
G01 X-97.5273 Y23.2951 
G01 X-97.6853 Y23.3605 
G01 X-97.8275 Y23.4555 
G01 X-97.9485 Y23.5765 
G01 X-98.0435 Y23.7187 
G01 X-98.1089 Y23.8767 
G01 X-98.1423 Y24.0445 
G01 X-98.1423 Y24.2155 
G01 X-98.1089 Y24.3833 
G01 X-98.0435 Y24.5413 
G01 X-97.9485 Y24.6835 
G01 X-97.8275 Y24.8045 
G01 X-97.6853 Y24.8995 
G01 X-97.5273 Y24.9649 
G01 X-97.3595 Y24.9983 
G01 X-95.9719 Y24.9983 
G01 X-94.8309 Y26.1393 
G01 X-94.8309 Y26.8959 
G01 X-94.9825 Y27.0475 
G01 X-94.9311 Y26.9233 
G00 Z2.5400  
G00 X-95.3547 Y24.8995 
G01 Z-0.1778 F254   
G01 X-95.2125 Y24.8045 F508   
G01 X-95.0915 Y24.6835 
G01 X-94.9965 Y24.5413 
G01 X-94.9311 Y24.3833 
G01 X-94.8977 Y24.2155 
G01 X-94.8977 Y24.0445 
G01 X-94.9311 Y23.8767 
G01 X-94.9965 Y23.7187 
G01 X-95.0915 Y23.5765 
G01 X-95.2125 Y23.4555 
G01 X-95.3547 Y23.3605 
G01 X-95.5127 Y23.2951 
G01 X-95.6805 Y23.2617 
G01 X-96.4311 Y23.2617 
G01 X-96.4311 Y22.5173 
G01 X-96.4601 Y22.4473 
G01 X-98.1778 Y20.7296 
G01 X-98.0580 Y20.7617 
G01 X-97.9284 Y20.7617 
G01 X-97.8035 Y20.7283 
G01 X-94.5261 Y24.0057 
G01 X-94.5261 Y25.9053 
G01 X-95.4800 Y24.9514 
G01 X-95.3547 Y24.8995 
G00 Z2.5400  
G00 X-82.2291 Y24.9047 
G01 Z-0.1778 F254   
G01 X-81.7753 Y24.4509 F508   
G01 X-81.7753 Y23.8091 
G01 X-81.8421 Y23.7423 
G01 X-81.3725 Y23.2727 
G01 X-81.3435 Y23.2027 
G01 X-81.3435 Y18.6717 
G01 X-76.2784 Y13.6066 
G01 X-76.3353 Y13.7440 
G01 X-76.3651 Y13.8937 
G01 X-76.3651 Y14.0463 
G01 X-76.3353 Y14.1960 
G01 X-76.2769 Y14.3370 
G01 X-76.1921 Y14.4638 
G01 X-76.0842 Y14.5717 
G01 X-75.9574 Y14.6565 
G01 X-75.8164 Y14.7149 
G01 X-75.6667 Y14.7447 
G01 X-74.1933 Y14.7447 
G01 X-74.0436 Y14.7149 
G01 X-73.9026 Y14.6565 
G01 X-73.7758 Y14.5717 
G01 X-73.6679 Y14.4638 
G01 X-73.5831 Y14.3370 
G01 X-73.5247 Y14.1960 
G01 X-73.4974 Y14.0589 
G01 X-73.4189 Y14.0589 
G01 X-73.3489 Y14.0299 
G01 X-71.9701 Y12.6511 
G01 X-71.8452 Y12.6845 
G01 X-71.7156 Y12.6845 
G01 X-71.5958 Y12.6524 
G01 X-74.6787 Y15.7353 
G01 X-75.6667 Y15.7353 
G01 X-75.8164 Y15.7651 
G01 X-75.9574 Y15.8235 
G01 X-76.0842 Y15.9083 
G01 X-76.1921 Y16.0162 
G01 X-76.2769 Y16.1430 
G01 X-76.3353 Y16.2840 
G01 X-76.3651 Y16.4337 
G01 X-76.3651 Y16.5863 
G01 X-76.3353 Y16.7360 
G01 X-76.2769 Y16.8770 
G01 X-76.1921 Y17.0038 
G01 X-76.0842 Y17.1117 
G01 X-75.9574 Y17.1965 
G01 X-75.8164 Y17.2549 
G01 X-75.6667 Y17.2847 
G01 X-74.1933 Y17.2847 
G01 X-74.0436 Y17.2549 
G01 X-73.9026 Y17.1965 
G01 X-73.7758 Y17.1117 
G01 X-73.6679 Y17.0038 
G01 X-73.5831 Y16.8770 
G01 X-73.5247 Y16.7360 
G01 X-73.4949 Y16.5863 
G01 X-73.4949 Y16.4337 
G01 X-73.5247 Y16.2840 
G01 X-73.5831 Y16.1430 
G01 X-73.6679 Y16.0162 
G01 X-73.7758 Y15.9083 
G01 X-73.9026 Y15.8235 
G01 X-74.0436 Y15.7651 
G01 X-74.1488 Y15.7442 
G01 X-71.0629 Y12.6583 
G01 X-71.0093 Y12.6047 
G01 X-70.9803 Y12.5347 
G01 X-70.9803 Y11.8899 
G01 X-69.9897 Y12.8805 
G01 X-69.9897 Y13.9419 
G01 X-74.3231 Y18.2753 
G01 X-75.6667 Y18.2753 
G01 X-75.8164 Y18.3051 
G01 X-75.9574 Y18.3635 
G01 X-76.0842 Y18.4483 
G01 X-76.1921 Y18.5562 
G01 X-76.2769 Y18.6830 
G01 X-76.3353 Y18.8240 
G01 X-76.3651 Y18.9737 
G01 X-76.3651 Y19.1263 
G01 X-76.3353 Y19.2760 
G01 X-76.2769 Y19.4170 
G01 X-76.1921 Y19.5438 
G01 X-76.0842 Y19.6517 
G01 X-75.9574 Y19.7365 
G01 X-75.8164 Y19.7949 
G01 X-75.6667 Y19.8247 
G01 X-74.1933 Y19.8247 
G01 X-74.0436 Y19.7949 
G01 X-73.9026 Y19.7365 
G01 X-73.7758 Y19.6517 
G01 X-73.6679 Y19.5438 
G01 X-73.5831 Y19.4170 
G01 X-73.5247 Y19.2760 
G01 X-73.4949 Y19.1263 
G01 X-73.4949 Y18.9737 
G01 X-73.5247 Y18.8240 
G01 X-73.5831 Y18.6830 
G01 X-73.6679 Y18.5562 
G01 X-73.7758 Y18.4483 
G01 X-73.8846 Y18.3756 
G01 X-69.7203 Y14.2113 
G01 X-68.7090 Y14.2113 
G01 X-68.6569 Y14.3370 
G01 X-68.5721 Y14.4638 
G01 X-68.4642 Y14.5717 
G01 X-68.3374 Y14.6565 
G01 X-68.1964 Y14.7149 
G01 X-68.0467 Y14.7447 
G01 X-66.5733 Y14.7447 
G01 X-66.4236 Y14.7149 
G01 X-66.2826 Y14.6565 
G01 X-66.1558 Y14.5717 
G01 X-66.0478 Y14.4638 
G01 X-65.9631 Y14.3370 
G01 X-65.9047 Y14.1960 
G01 X-65.8749 Y14.0463 
G01 X-65.8749 Y13.8937 
G01 X-65.9047 Y13.7440 
G01 X-65.9631 Y13.6030 
G01 X-66.0478 Y13.4762 
G01 X-66.1558 Y13.3683 
G01 X-66.2826 Y13.2835 
G01 X-66.4236 Y13.2251 
G01 X-66.5733 Y13.1953 
G01 X-68.0467 Y13.1953 
G01 X-68.1964 Y13.2251 
G01 X-68.3374 Y13.2835 
G01 X-68.4642 Y13.3683 
G01 X-68.5721 Y13.4762 
G01 X-68.6569 Y13.6030 
G01 X-68.7153 Y13.7440 
G01 X-68.7325 Y13.8303 
G01 X-69.6087 Y13.8303 
G01 X-69.6087 Y12.7637 
G01 X-69.6377 Y12.6937 
G01 X-69.6913 Y12.6401 
G01 X-70.7109 Y11.6205 
G01 X-68.7224 Y11.6205 
G01 X-68.7153 Y11.6560 
G01 X-68.6569 Y11.7970 
G01 X-68.5721 Y11.9238 
G01 X-68.4642 Y12.0317 
G01 X-68.3374 Y12.1165 
G01 X-68.1964 Y12.1749 
G01 X-68.0467 Y12.2047 
G01 X-66.7031 Y12.2047 
G01 X-65.8749 Y13.0329 
G01 X-65.8749 Y16.8375 
G01 X-67.3127 Y18.2753 
G01 X-68.0467 Y18.2753 
G01 X-68.1964 Y18.3051 
G01 X-68.3374 Y18.3635 
G01 X-68.4642 Y18.4483 
G01 X-68.5721 Y18.5562 
G01 X-68.6569 Y18.6830 
G01 X-68.7153 Y18.8240 
G01 X-68.7451 Y18.9737 
G01 X-68.7451 Y19.1263 
G01 X-68.7153 Y19.2760 
G01 X-68.6569 Y19.4170 
G01 X-68.5721 Y19.5438 
G01 X-68.4642 Y19.6517 
G01 X-68.3374 Y19.7365 
G01 X-68.1964 Y19.7949 
G01 X-68.0467 Y19.8247 
G01 X-66.7031 Y19.8247 
G01 X-65.8749 Y20.6529 
G01 X-65.8749 Y24.4575 
G01 X-66.1507 Y24.7333 
G01 X-66.1797 Y24.8033 
G01 X-66.1797 Y29.3751 
G01 X-74.7139 Y29.3751 
G01 X-74.7839 Y29.4041 
G01 X-74.8375 Y29.4577 
G01 X-75.6693 Y30.2895 
G01 X-81.9885 Y30.2895 
G01 X-81.9821 Y30.2831 
G01 X-81.3725 Y29.6735 
G01 X-81.3435 Y29.6035 
G01 X-81.3435 Y28.8825 
G01 X-76.3143 Y23.8533 
G01 X-76.3353 Y23.9040 
G01 X-76.3651 Y24.0537 
G01 X-76.3651 Y24.2063 
G01 X-76.3353 Y24.3560 
G01 X-76.2769 Y24.4970 
G01 X-76.1921 Y24.6238 
G01 X-76.0842 Y24.7317 
G01 X-75.9574 Y24.8165 
G01 X-75.8164 Y24.8749 
G01 X-75.6667 Y24.9047 
G01 X-74.1933 Y24.9047 
G01 X-74.0436 Y24.8749 
G01 X-73.9026 Y24.8165 
G01 X-73.7758 Y24.7317 
G01 X-73.6679 Y24.6238 
G01 X-73.5831 Y24.4970 
G01 X-73.5247 Y24.3560 
G01 X-73.4949 Y24.2063 
G01 X-73.4949 Y24.0537 
G01 X-73.5247 Y23.9040 
G01 X-73.5831 Y23.7630 
G01 X-73.6679 Y23.6362 
G01 X-73.7758 Y23.5282 
G01 X-73.9026 Y23.4435 
G01 X-74.0436 Y23.3851 
G01 X-74.1933 Y23.3553 
G01 X-75.6667 Y23.3553 
G01 X-75.8164 Y23.3851 
G01 X-75.8671 Y23.4061 
G01 X-75.8163 Y23.3553 
G01 X-74.4857 Y23.3553 
G01 X-74.4157 Y23.3263 
G01 X-74.3621 Y23.2727 
G01 X-68.3010 Y17.2116 
G01 X-68.1964 Y17.2549 
G01 X-68.0467 Y17.2847 
G01 X-66.5733 Y17.2847 
G01 X-66.4236 Y17.2549 
G01 X-66.2826 Y17.1965 
G01 X-66.1558 Y17.1117 
G01 X-66.0478 Y17.0038 
G01 X-65.9631 Y16.8770 
G01 X-65.9047 Y16.7360 
G01 X-65.8749 Y16.5863 
G01 X-65.8749 Y16.4337 
G01 X-65.9047 Y16.2840 
G01 X-65.9631 Y16.1430 
G01 X-66.0478 Y16.0162 
G01 X-66.1558 Y15.9083 
G01 X-66.2826 Y15.8235 
G01 X-66.4236 Y15.7651 
G01 X-66.5733 Y15.7353 
G01 X-68.0467 Y15.7353 
G01 X-68.1964 Y15.7651 
G01 X-68.3374 Y15.8235 
G01 X-68.4642 Y15.9083 
G01 X-68.5721 Y16.0162 
G01 X-68.6569 Y16.1430 
G01 X-68.7153 Y16.2840 
G01 X-68.7451 Y16.4337 
G01 X-68.7451 Y16.5863 
G01 X-68.7153 Y16.7360 
G01 X-68.6569 Y16.8770 
G01 X-68.5961 Y16.9679 
G01 X-73.5816 Y21.9534 
G01 X-73.5247 Y21.8160 
G01 X-73.4949 Y21.6663 
G01 X-73.4949 Y21.5137 
G01 X-73.5247 Y21.3640 
G01 X-73.5831 Y21.2230 
G01 X-73.6679 Y21.0962 
G01 X-73.7758 Y20.9883 
G01 X-73.9026 Y20.9035 
G01 X-74.0436 Y20.8451 
G01 X-74.1933 Y20.8153 
G01 X-75.6667 Y20.8153 
G01 X-75.8164 Y20.8451 
G01 X-75.9574 Y20.9035 
G01 X-76.0842 Y20.9883 
G01 X-76.1921 Y21.0962 
G01 X-76.2769 Y21.2230 
G01 X-76.3353 Y21.3640 
G01 X-76.3651 Y21.5137 
G01 X-76.3651 Y21.6663 
G01 X-76.3353 Y21.8160 
G01 X-76.2769 Y21.9570 
G01 X-76.1921 Y22.0838 
G01 X-76.0842 Y22.1917 
G01 X-75.9574 Y22.2765 
G01 X-75.8164 Y22.3349 
G01 X-75.6667 Y22.3647 
G01 X-74.1933 Y22.3647 
G01 X-74.0436 Y22.3349 
G01 X-73.9062 Y22.2780 
G01 X-74.6025 Y22.9743 
G01 X-75.9331 Y22.9743 
G01 X-76.0031 Y23.0033 
G01 X-81.6419 Y28.6421 
G01 X-81.6955 Y28.6957 
G01 X-81.7245 Y28.7657 
G01 X-81.7245 Y29.4867 
G01 X-82.2225 Y29.9847 
G01 X-82.8267 Y29.9847 
G01 X-82.2291 Y29.9847 
G01 X-81.7753 Y29.5309 
G01 X-81.7753 Y28.8891 
G01 X-82.2291 Y28.4353 
G01 X-82.4103 Y28.4353 
G01 X-82.4103 Y24.9047 
G01 X-82.2291 Y24.9047 
G00 Z2.5400  
G00 X-68.0467 Y24.9047 
G01 Z-0.1778 F254   
G01 X-66.5733 Y24.9047 F508   
G01 X-66.4236 Y24.8749 
G01 X-66.2826 Y24.8165 
G01 X-66.1558 Y24.7317 
G01 X-66.0478 Y24.6238 
G01 X-65.9631 Y24.4970 
G01 X-65.9047 Y24.3560 
G01 X-65.8749 Y24.2063 
G01 X-65.8749 Y24.0537 
G01 X-65.9047 Y23.9040 
G01 X-65.9631 Y23.7630 
G01 X-66.0478 Y23.6362 
G01 X-66.1558 Y23.5282 
G01 X-66.2826 Y23.4435 
G01 X-66.4236 Y23.3851 
G01 X-66.5733 Y23.3553 
G01 X-68.0467 Y23.3553 
G01 X-68.1964 Y23.3851 
G01 X-68.3374 Y23.4435 
G01 X-68.4642 Y23.5282 
G01 X-68.5721 Y23.6362 
G01 X-68.6569 Y23.7630 
G01 X-68.7153 Y23.9040 
G01 X-68.7451 Y24.0537 
G01 X-68.7451 Y24.2063 
G01 X-68.7153 Y24.3560 
G01 X-68.6569 Y24.4970 
G01 X-68.5721 Y24.6238 
G01 X-68.4642 Y24.7317 
G01 X-68.3374 Y24.8165 
G01 X-68.1964 Y24.8749 
G01 X-68.0467 Y24.9047 
G00 Z2.5400  
G00 X-68.0467 Y22.3647 
G01 Z-0.1778 F254   
G01 X-66.5733 Y22.3647 F508   
G01 X-66.4236 Y22.3349 
G01 X-66.2826 Y22.2765 
G01 X-66.1558 Y22.1917 
G01 X-66.0478 Y22.0838 
G01 X-65.9631 Y21.9570 
G01 X-65.9047 Y21.8160 
G01 X-65.8749 Y21.6663 
G01 X-65.8749 Y21.5137 
G01 X-65.9047 Y21.3640 
G01 X-65.9631 Y21.2230 
G01 X-66.0478 Y21.0962 
G01 X-66.1558 Y20.9883 
G01 X-66.2826 Y20.9035 
G01 X-66.4236 Y20.8451 
G01 X-66.5733 Y20.8153 
G01 X-68.0467 Y20.8153 
G01 X-68.1964 Y20.8451 
G01 X-68.3374 Y20.9035 
G01 X-68.4642 Y20.9883 
G01 X-68.5721 Y21.0962 
G01 X-68.6569 Y21.2230 
G01 X-68.7153 Y21.3640 
G01 X-68.7451 Y21.5137 
G01 X-68.7451 Y21.6663 
G01 X-68.7153 Y21.8160 
G01 X-68.6569 Y21.9570 
G01 X-68.5721 Y22.0838 
G01 X-68.4642 Y22.1917 
G01 X-68.3374 Y22.2765 
G01 X-68.1964 Y22.3349 
G01 X-68.0467 Y22.3647 
G00 Z2.5400  
G00 X-83.3247 Y23.8091 
G01 Z-0.1778 F254   
G01 X-83.3247 Y24.4509 F508   
G01 X-82.8709 Y24.9047 
G01 X-82.7913 Y24.9047 
G01 X-82.7913 Y28.4353 
G01 X-82.8709 Y28.4353 
G01 X-83.3247 Y28.8891 
G01 X-83.3247 Y29.4867 
G01 X-83.3247 Y20.0433 
G01 X-82.9885 Y19.7071 
G01 X-82.8709 Y19.8247 
G01 X-82.2291 Y19.8247 
G01 X-81.7753 Y19.3709 
G01 X-81.7753 Y18.7291 
G01 X-82.2291 Y18.2753 
G01 X-82.4103 Y18.2753 
G01 X-82.4103 Y14.7447 
G01 X-82.2291 Y14.7447 
G01 X-81.7753 Y14.2909 
G01 X-81.7753 Y13.6491 
G01 X-82.2291 Y13.1953 
G01 X-82.8709 Y13.1953 
G01 X-83.3247 Y13.6491 
G01 X-83.3247 Y14.2909 
G01 X-82.8709 Y14.7447 
G01 X-82.7913 Y14.7447 
G01 X-82.7913 Y18.2753 
G01 X-82.8709 Y18.2753 
G01 X-83.3247 Y18.7291 
G01 X-83.3247 Y19.3709 
G01 X-83.2579 Y19.4377 
G01 X-83.6767 Y19.8565 
G01 X-83.7057 Y19.9265 
G01 X-83.7057 Y29.5629 
G01 X-89.1985 Y24.0701 
G01 X-89.2685 Y24.0411 
G01 X-89.3953 Y24.0411 
G01 X-89.3953 Y23.8091 
G01 X-89.8491 Y23.3553 
G01 X-90.0303 Y23.3553 
G01 X-90.0303 Y19.8247 
G01 X-89.8491 Y19.8247 
G01 X-89.3953 Y19.3709 
G01 X-89.3953 Y18.7291 
G01 X-89.8491 Y18.2753 
G01 X-90.4909 Y18.2753 
G01 X-90.6085 Y18.3929 
G01 X-91.1797 Y17.8217 
G01 X-91.2497 Y17.7927 
G01 X-97.7263 Y17.7927 
G01 X-97.7963 Y17.8217 
G01 X-97.8499 Y17.8753 
G01 X-98.7171 Y18.7425 
G01 X-98.7171 Y14.2521 
G01 X-98.0575 Y13.5925 
G01 X-98.1089 Y13.7167 
G01 X-98.1423 Y13.8845 
G01 X-98.1423 Y14.0555 
G01 X-98.1089 Y14.2233 
G01 X-98.0435 Y14.3813 
G01 X-97.9485 Y14.5235 
G01 X-97.8275 Y14.6445 
G01 X-97.6853 Y14.7395 
G01 X-97.5273 Y14.8049 
G01 X-97.3595 Y14.8383 
G01 X-95.6805 Y14.8383 
G01 X-95.5127 Y14.8049 
G01 X-95.3547 Y14.7395 
G01 X-95.2125 Y14.6445 
G01 X-95.0915 Y14.5235 
G01 X-94.9965 Y14.3813 
G01 X-94.9311 Y14.2233 
G01 X-94.9287 Y14.2113 
G01 X-90.9447 Y14.2113 
G01 X-90.9447 Y14.2909 
G01 X-90.4909 Y14.7447 
G01 X-89.8491 Y14.7447 
G01 X-89.3953 Y14.2909 
G01 X-89.3953 Y13.6491 
G01 X-89.8491 Y13.1953 
G01 X-90.4909 Y13.1953 
G01 X-90.9447 Y13.6491 
G01 X-90.9447 Y13.8303 
G01 X-94.9085 Y13.8303 
G01 X-94.9311 Y13.7167 
G01 X-94.9965 Y13.5587 
G01 X-95.0915 Y13.4165 
G01 X-95.2125 Y13.2955 
G01 X-95.3547 Y13.2005 
G01 X-95.5127 Y13.1351 
G01 X-95.6805 Y13.1017 
G01 X-97.3595 Y13.1017 
G01 X-97.5273 Y13.1351 
G01 X-97.6515 Y13.1865 
G01 X-96.7633 Y12.2983 
G01 X-95.6805 Y12.2983 
G01 X-95.5127 Y12.2649 
G01 X-95.3547 Y12.1995 
G01 X-95.2125 Y12.1044 
G01 X-95.0915 Y11.9835 
G01 X-94.9965 Y11.8413 
G01 X-94.9311 Y11.6833 
G01 X-94.8977 Y11.5155 
G01 X-94.8977 Y11.3445 
G01 X-94.9311 Y11.1767 
G01 X-94.9965 Y11.0187 
G01 X-95.0915 Y10.8765 
G01 X-95.2125 Y10.7555 
G01 X-95.2865 Y10.7061 
G01 X-75.8671 Y10.7061 
G01 X-75.9574 Y10.7435 
G01 X-76.0842 Y10.8283 
G01 X-76.1921 Y10.9362 
G01 X-76.2769 Y11.0630 
G01 X-76.3353 Y11.2040 
G01 X-76.3651 Y11.3537 
G01 X-76.3651 Y11.5063 
G01 X-76.3353 Y11.6560 
G01 X-76.2769 Y11.7970 
G01 X-76.1921 Y11.9238 
G01 X-76.0842 Y12.0317 
G01 X-75.9574 Y12.1165 
G01 X-75.8164 Y12.1749 
G01 X-75.6667 Y12.2047 
G01 X-75.4153 Y12.2047 
G01 X-81.6419 Y18.4313 
G01 X-81.6955 Y18.4849 
G01 X-81.7245 Y18.5549 
G01 X-81.7245 Y23.0859 
G01 X-82.1115 Y23.4729 
G01 X-82.2291 Y23.3553 
G01 X-82.8709 Y23.3553 
G01 X-83.3247 Y23.8091 
G00 Z2.5400  
G00 X-97.3595 Y17.3783 
G01 Z-0.1778 F254   
G01 X-95.6805 Y17.3783 F508   
G01 X-95.5127 Y17.3449 
G01 X-95.3547 Y17.2795 
G01 X-95.2125 Y17.1845 
G01 X-95.0915 Y17.0635 
G01 X-94.9965 Y16.9213 
G01 X-94.9311 Y16.7633 
G01 X-94.8977 Y16.5955 
G01 X-94.8977 Y16.4245 
G01 X-94.9311 Y16.2567 
G01 X-94.9965 Y16.0987 
G01 X-95.0915 Y15.9565 
G01 X-95.2125 Y15.8355 
G01 X-95.3547 Y15.7405 
G01 X-95.5127 Y15.6751 
G01 X-95.6805 Y15.6417 
G01 X-97.3595 Y15.6417 
G01 X-97.5273 Y15.6751 
G01 X-97.6853 Y15.7405 
G01 X-97.8275 Y15.8355 
G01 X-97.9485 Y15.9565 
G01 X-98.0435 Y16.0987 
G01 X-98.1089 Y16.2567 
G01 X-98.1423 Y16.4245 
G01 X-98.1423 Y16.5955 
G01 X-98.1089 Y16.7633 
G01 X-98.0435 Y16.9213 
G01 X-97.9485 Y17.0635 
G01 X-97.8275 Y17.1845 
G01 X-97.6853 Y17.2795 
G01 X-97.5273 Y17.3449 
G01 X-97.3595 Y17.3783 
G00 Z2.5400  
G00 X-74.1933 Y12.2047 
G01 Z-0.1778 F254   
G01 X-74.0436 Y12.1749 F508   
G01 X-73.9026 Y12.1165 
G01 X-73.7758 Y12.0317 
G01 X-73.6679 Y11.9238 
G01 X-73.5831 Y11.7970 
G01 X-73.5247 Y11.6560 
G01 X-73.4949 Y11.5063 
G01 X-73.4949 Y11.3537 
G01 X-73.5247 Y11.2040 
G01 X-73.5831 Y11.0630 
G01 X-73.6679 Y10.9362 
G01 X-73.7758 Y10.8283 
G01 X-73.9026 Y10.7435 
G01 X-73.9929 Y10.7061 
G01 X-72.6213 Y10.7061 
G01 X-71.5958 Y11.7316 
G01 X-71.7156 Y11.6995 
G01 X-71.8452 Y11.6995 
G01 X-71.9705 Y11.7331 
G01 X-72.0828 Y11.7979 
G01 X-72.1745 Y11.8896 
G01 X-72.2393 Y12.0019 
G01 X-72.2729 Y12.1272 
G01 X-72.2729 Y12.2568 
G01 X-72.2395 Y12.3817 
G01 X-73.5357 Y13.6779 
G01 X-73.5521 Y13.6779 
G01 X-73.5831 Y13.6030 
G01 X-73.6679 Y13.4762 
G01 X-73.7758 Y13.3683 
G01 X-73.9026 Y13.2835 
G01 X-74.0436 Y13.2251 
G01 X-74.1933 Y13.1953 
G01 X-75.6667 Y13.1953 
G01 X-75.8164 Y13.2251 
G01 X-75.9538 Y13.2820 
G01 X-74.8765 Y12.2047 
G01 X-74.1933 Y12.2047 
G00 Z2.5400  
G00 X-56.3091 Y11.2395 
G01 Z-0.1778 F254   
G01 X-56.3091 Y11.2395 F508   
G01 X-55.4329 Y11.2395 
G01 X-54.8005 Y10.6071 
G01 X-54.8005 Y9.7817  
G01 X-54.3623 Y10.2199 
G01 X-54.2923 Y10.2489 
G01 X-41.7195 Y10.2489 
G01 X-41.7195 Y10.6071 
G01 X-41.0871 Y11.2395 
G01 X-40.1929 Y11.2395 
G01 X-39.5605 Y10.6071 
G01 X-39.5605 Y9.7817  
G01 X-39.2049 Y10.1373 
G01 X-39.2049 Y12.0369 
G01 X-39.2113 Y12.0305 
G01 X-39.9733 Y11.2685 
G01 X-40.0433 Y11.2395 
G01 X-40.1191 Y11.2395 
G01 X-56.3091 Y11.2395 
G00 Z2.5400  
G00 X-72.6213 Y46.4439 
G01 Z-0.1778 F254   
G01 X-72.7229 Y46.4439 F508   
G01 X-72.6326 Y46.4065 
G01 X-72.5058 Y46.3217 
G01 X-72.3979 Y46.2138 
G01 X-72.3131 Y46.0870 
G01 X-72.2757 Y45.9967 
G01 X-72.2757 Y46.0983 
G01 X-72.6213 Y46.4439 
G00 Z2.5400  
G00 X-72.2757 Y45.3417 
G01 Z-0.1778 F254   
G01 X-72.2757 Y45.4433 F508   
G01 X-72.3131 Y45.3530 
G01 X-72.3979 Y45.2262 
G01 X-72.5058 Y45.1183 
G01 X-72.6326 Y45.0335 
G01 X-72.7229 Y44.9961 
G01 X-72.6213 Y44.9961 
G01 X-72.2757 Y45.3417 
G00 Z2.5400  
G00 X-65.1893 Y42.4053 
G01 Z-0.1778 F254   
G01 X-65.1193 Y42.3763 F508   
G01 X-65.0657 Y42.3227 
G01 X-63.6243 Y40.8813 
G01 X-56.9595 Y40.8813 
G01 X-56.9595 Y41.0871 
G01 X-56.3271 Y41.7195 
G01 X-55.4329 Y41.7195 
G01 X-54.8005 Y41.0871 
G01 X-54.8005 Y40.2617 
G01 X-54.4449 Y40.6173 
G01 X-54.4449 Y42.5169 
G01 X-54.4513 Y42.5105 
G01 X-55.2133 Y41.7485 
G01 X-55.2833 Y41.7195 
G01 X-62.8267 Y41.7195 
G01 X-62.8967 Y41.7485 
G01 X-62.9503 Y41.8021 
G01 X-64.6916 Y43.5434 
G01 X-64.6347 Y43.4060 
G01 X-64.6049 Y43.2563 
G01 X-64.6049 Y43.1037 
G01 X-64.6347 Y42.9540 
G01 X-64.6931 Y42.8130 
G01 X-64.7779 Y42.6862 
G01 X-64.8858 Y42.5783 
G01 X-65.0126 Y42.4935 
G01 X-65.1536 Y42.4351 
G01 X-65.3033 Y42.4053 
G01 X-66.7767 Y42.4053 
G01 X-66.9264 Y42.4351 
G01 X-67.0638 Y42.4920 
G01 X-66.9771 Y42.4053 
G01 X-65.1893 Y42.4053 
G00 Z2.5400  
G00 X-67.4453 Y42.9540 
G01 Z-0.1778 F254   
G01 X-67.4751 Y43.1037 F508   
G01 X-67.4751 Y43.2563 
G01 X-67.4453 Y43.4060 
G01 X-67.3869 Y43.5470 
G01 X-67.3021 Y43.6738 
G01 X-67.1942 Y43.7817 
G01 X-67.0674 Y43.8665 
G01 X-66.9264 Y43.9249 
G01 X-66.7767 Y43.9547 
G01 X-65.3033 Y43.9547 
G01 X-65.1536 Y43.9249 
G01 X-65.0162 Y43.8680 
G01 X-65.1537 Y44.0055 
G01 X-66.9415 Y44.0055 
G01 X-67.0115 Y44.0345 
G01 X-67.0651 Y44.0881 
G01 X-69.9607 Y46.9837 
G01 X-69.9897 Y47.0537 
G01 X-69.9897 Y52.5917 
G01 X-70.6267 Y52.5917 
G01 X-70.6687 Y52.6091 
G01 X-70.7009 Y52.6413 
G01 X-70.7183 Y52.6833 
G01 X-70.7183 Y53.5325 
G01 X-71.5545 Y54.3687 
G01 X-76.8831 Y54.3687 
G01 X-80.9153 Y50.3365 
G01 X-80.9689 Y50.2829 
G01 X-81.0389 Y50.2539 
G01 X-82.1783 Y50.2539 
G01 X-81.7753 Y49.8509 
G01 X-81.7753 Y49.7205 
G01 X-76.2789 Y49.7205 
G01 X-75.4471 Y50.5523 
G01 X-75.3935 Y50.6059 
G01 X-73.2183 Y52.7811 
G01 X-73.2183 Y54.2367 
G01 X-73.2009 Y54.2787 
G01 X-73.1687 Y54.3109 
G01 X-73.1267 Y54.3283 
G01 X-71.5733 Y54.3283 
G01 X-71.5313 Y54.3109 
G01 X-71.4991 Y54.2787 
G01 X-71.4817 Y54.2367 
G01 X-71.4817 Y52.6833 
G01 X-71.4991 Y52.6413 
G01 X-71.5313 Y52.6091 
G01 X-71.5733 Y52.5917 
G01 X-72.8689 Y52.5917 
G01 X-75.0162 Y50.4444 
G01 X-67.3884 Y42.8166 
G01 X-67.4453 Y42.9540 
G00 Z2.5400  
G00 X-89.8933 Y37.3253 
G01 Z-0.1778 F254   
G01 X-90.4909 Y37.3253 F508   
G01 X-90.6085 Y37.4429 
G01 X-90.9801 Y37.0713 
G01 X-90.1473 Y37.0713 
G01 X-89.8933 Y37.3253 
G00 Z2.5400  
G00 X-89.3445 Y38.3259 
G01 Z-0.1778 F254   
G01 X-89.3953 Y38.3767 F508   
G01 X-89.3953 Y37.8233 
G01 X-89.3445 Y37.8741 
G01 X-89.3445 Y38.3259 
G00 Z2.5400  
G00 X-95.0209 Y40.1923 
G01 Z-0.1778 F254   
G01 X-95.0915 Y40.0865 F508   
G01 X-95.2125 Y39.9655 
G01 X-95.3547 Y39.8705 
G01 X-95.5127 Y39.8051 
G01 X-95.6805 Y39.7717 
G01 X-97.3595 Y39.7717 
G01 X-97.5273 Y39.8051 
G01 X-97.6515 Y39.8565 
G01 X-96.7633 Y38.9683 
G01 X-95.6805 Y38.9683 
G01 X-95.5127 Y38.9349 
G01 X-95.3547 Y38.8695 
G01 X-95.2125 Y38.7745 
G01 X-95.0915 Y38.6535 
G01 X-94.9965 Y38.5113 
G01 X-94.9311 Y38.3533 
G01 X-94.8977 Y38.1855 
G01 X-94.8977 Y38.0145 
G01 X-94.9311 Y37.8467 
G01 X-94.9965 Y37.6887 
G01 X-95.0915 Y37.5465 
G01 X-95.2125 Y37.4255 
G01 X-95.3547 Y37.3305 
G01 X-95.5127 Y37.2651 
G01 X-95.6805 Y37.2317 
G01 X-97.3595 Y37.2317 
G01 X-97.5273 Y37.2651 
G01 X-97.6853 Y37.3305 
G01 X-97.8275 Y37.4255 
G01 X-97.9485 Y37.5465 
G01 X-98.0435 Y37.6887 
G01 X-98.1089 Y37.8467 
G01 X-98.1423 Y38.0145 
G01 X-98.1423 Y38.1855 
G01 X-98.1089 Y38.3533 
G01 X-98.0435 Y38.5113 
G01 X-97.9485 Y38.6535 
G01 X-97.8275 Y38.7745 
G01 X-97.6853 Y38.8695 
G01 X-97.5273 Y38.9349 
G01 X-97.3595 Y38.9683 
G01 X-97.3021 Y38.9683 
G01 X-98.4059 Y40.0721 
G01 X-98.4123 Y40.0785 
G01 X-98.4123 Y36.6549 
G01 X-97.9143 Y36.1569 
G01 X-92.4333 Y36.1569 
G01 X-91.7126 Y36.8776 
G01 X-91.8324 Y36.8455 
G01 X-91.9620 Y36.8455 
G01 X-92.0873 Y36.8791 
G01 X-92.1996 Y36.9439 
G01 X-92.2913 Y37.0356 
G01 X-92.3561 Y37.1479 
G01 X-92.3897 Y37.2732 
G01 X-92.3897 Y37.4028 
G01 X-92.3563 Y37.5277 
G01 X-95.0209 Y40.1923 
G00 Z2.5400  
G00 X-94.9287 Y42.9387 
G01 Z-0.1778 F254   
G01 X-94.9311 Y42.9267 F508   
G01 X-94.9965 Y42.7687 
G01 X-95.0915 Y42.6265 
G01 X-95.2125 Y42.5055 
G01 X-95.3547 Y42.4105 
G01 X-95.5127 Y42.3451 
G01 X-95.6805 Y42.3117 
G01 X-97.1697 Y42.3117 
G01 X-98.1075 Y41.3739 
G01 X-98.1075 Y40.8967 
G01 X-98.0435 Y41.0513 
G01 X-97.9485 Y41.1935 
G01 X-97.8275 Y41.3145 
G01 X-97.6853 Y41.4095 
G01 X-97.5273 Y41.4749 
G01 X-97.3595 Y41.5083 
G01 X-95.6805 Y41.5083 
G01 X-95.5127 Y41.4749 
G01 X-95.3547 Y41.4095 
G01 X-95.2125 Y41.3145 
G01 X-95.0915 Y41.1935 
G01 X-94.9965 Y41.0513 
G01 X-94.9311 Y40.8933 
G01 X-94.8977 Y40.7255 
G01 X-94.8977 Y40.6079 
G01 X-92.0868 Y37.7971 
G01 X-91.9620 Y37.8305 
G01 X-91.8324 Y37.8305 
G01 X-91.7071 Y37.7969 
G01 X-91.5948 Y37.7321 
G01 X-91.5031 Y37.6404 
G01 X-91.4383 Y37.5281 
G01 X-91.4047 Y37.4028 
G01 X-91.4047 Y37.2732 
G01 X-91.4368 Y37.1534 
G01 X-90.8779 Y37.7123 
G01 X-90.9447 Y37.7791 
G01 X-90.9447 Y38.4209 
G01 X-90.4909 Y38.8747 
G01 X-89.8933 Y38.8747 
G01 X-93.9573 Y42.9387 
G01 X-94.9287 Y42.9387 
G00 Z2.5400  
G00 X-98.0435 Y18.6387 
G01 Z-0.1778 F254   
G01 X-98.1089 Y18.7967 F508   
G01 X-98.1423 Y18.9645 
G01 X-98.1423 Y19.1355 
G01 X-98.1089 Y19.3033 
G01 X-98.0435 Y19.4613 
G01 X-97.9485 Y19.6035 
G01 X-97.8275 Y19.7245 
G01 X-97.6853 Y19.8195 
G01 X-97.5273 Y19.8849 
G01 X-97.3595 Y19.9183 
G01 X-96.6597 Y19.9183 
G01 X-96.6597 Y21.3333 
G01 X-97.5341 Y20.4589 
G01 X-97.5007 Y20.3340 
G01 X-97.5007 Y20.2044 
G01 X-97.5343 Y20.0791 
G01 X-97.5991 Y19.9668 
G01 X-97.6908 Y19.8751 
G01 X-97.8031 Y19.8103 
G01 X-97.9284 Y19.7767 
G01 X-98.0580 Y19.7767 
G01 X-98.1833 Y19.8103 
G01 X-98.2956 Y19.8751 
G01 X-98.3873 Y19.9668 
G01 X-98.4123 Y20.0101 
G01 X-98.4123 Y18.9765 
G01 X-97.9810 Y18.5452 
G01 X-98.0435 Y18.6387 
G00 Z2.5400  
G00 X-83.3247 Y49.7559 
G01 Z-0.1778 F254   
G01 X-83.3247 Y49.7559 F508   
G01 X-83.3247 Y49.3041 
G01 X-83.3247 Y49.7559 
G00 Z2.5400  
G00 X-43.5075 Y66.4083 
G01 Z-0.1778 F254   
G01 X-43.6317 Y66.2841 F508   
G01 X-43.5951 Y66.3086 
G01 X-43.4356 Y66.3746 
G01 X-43.2663 Y66.4083 
G01 X-43.0937 Y66.4083 
G01 X-42.9244 Y66.3746 
G01 X-42.8309 Y66.3359 
G01 X-42.9033 Y66.4083 
G01 X-43.5075 Y66.4083 
G00 Z2.5400  
G00 X-98.1075 Y9.1467  
G01 Z-0.1778 F254   
G01 X-98.0575 Y9.2675  F508   
G01 X-98.1075 Y9.2175  
G01 X-98.1075 Y9.1467  
G00 Z2.5400  
G00 X-97.6515 Y9.6735  
G01 Z-0.1778 F254   
G01 X-97.5273 Y9.7249  F508   
G01 X-97.3595 Y9.7583  
G01 X-95.6805 Y9.7583  
G01 X-95.5127 Y9.7249  
G01 X-95.3547 Y9.6595  
G01 X-95.2125 Y9.5645  
G01 X-95.0915 Y9.4435  
G01 X-94.9965 Y9.3013  
G01 X-94.9311 Y9.1433  
G01 X-94.9085 Y9.0297  
G01 X-76.3525 Y9.0297  
G01 X-76.3353 Y9.1160  
G01 X-76.2769 Y9.2570  
G01 X-76.1921 Y9.3838  
G01 X-76.0842 Y9.4917  
G01 X-75.9574 Y9.5765  
G01 X-75.8164 Y9.6349  
G01 X-75.6667 Y9.6647  
G01 X-74.1933 Y9.6647  
G01 X-74.0436 Y9.6349  
G01 X-73.9026 Y9.5765  
G01 X-73.7758 Y9.4917  
G01 X-73.6679 Y9.3838  
G01 X-73.5831 Y9.2570  
G01 X-73.5521 Y9.1821  
G01 X-73.2309 Y9.1821  
G01 X-72.3927 Y10.0203 
G01 X-97.3047 Y10.0203 
G01 X-97.6515 Y9.6735  
G00 Z2.5400  
G00 X-97.4571 Y7.8105  
G01 Z-0.1778 F254   
G01 X-68.5827 Y7.8105  F508   
G01 X-71.3232 Y10.5510 
G01 X-72.9905 Y8.8837  
G01 X-73.0441 Y8.8301  
G01 X-73.1141 Y8.8011  
G01 X-73.4974 Y8.8011  
G01 X-73.5247 Y8.6640  
G01 X-73.5831 Y8.5230  
G01 X-73.6679 Y8.3962  
G01 X-73.7758 Y8.2882  
G01 X-73.9026 Y8.2035  
G01 X-74.0436 Y8.1451  
G01 X-74.1933 Y8.1153  
G01 X-75.6667 Y8.1153  
G01 X-75.8164 Y8.1451  
G01 X-75.9574 Y8.2035  
G01 X-76.0842 Y8.2882  
G01 X-76.1921 Y8.3962  
G01 X-76.2769 Y8.5230  
G01 X-76.3290 Y8.6487  
G01 X-94.9287 Y8.6487  
G01 X-94.9311 Y8.6367  
G01 X-94.9965 Y8.4787  
G01 X-95.0915 Y8.3365  
G01 X-95.2125 Y8.2155  
G01 X-95.3547 Y8.1205  
G01 X-95.5127 Y8.0551  
G01 X-95.6805 Y8.0217  
G01 X-97.3595 Y8.0217  
G01 X-97.5273 Y8.0551  
G01 X-97.6853 Y8.1205  
G01 X-97.8275 Y8.2155  
G01 X-97.9485 Y8.3365  
G01 X-98.0435 Y8.4787  
G01 X-98.1075 Y8.6333  
G01 X-98.1075 Y8.4609  
G01 X-97.4571 Y7.8105  
G00 Z2.5400  
G00 X-40.2617 Y9.0805  
G01 Z-0.1778 F254   
G01 X-41.0871 Y9.0805  F508   
G01 X-41.7195 Y9.7129  
G01 X-41.7195 Y9.8679  
G01 X-54.1755 Y9.8679  
G01 X-56.2265 Y7.8169  
G01 X-56.2329 Y7.8105  
G01 X-41.5317 Y7.8105  
G01 X-40.2617 Y9.0805  
G00 Z2.5400  
G00 X-98.4123 Y41.6079 
G01 Z-0.1778 F254   
G01 X-97.6318 Y42.3884 F508   
G01 X-97.6853 Y42.4105 
G01 X-97.8275 Y42.5055 
G01 X-97.9485 Y42.6265 
G01 X-98.0435 Y42.7687 
G01 X-98.1089 Y42.9267 
G01 X-98.1423 Y43.0945 
G01 X-98.1423 Y43.2655 
G01 X-98.1089 Y43.4333 
G01 X-98.0435 Y43.5913 
G01 X-97.9485 Y43.7335 
G01 X-97.8275 Y43.8544 
G01 X-97.6853 Y43.9495 
G01 X-97.5959 Y43.9865 
G01 X-98.4123 Y44.8029 
G01 X-98.4123 Y41.6079 
G00 Z2.5400  
G00 X-98.0435 Y46.1313 
G01 Z-0.1778 F254   
G01 X-97.9810 Y46.2248 F508   
G01 X-98.1075 Y46.0983 
G01 X-98.1075 Y45.9767 
G01 X-98.0435 Y46.1313 
G00 Z2.5400  
G00 X-90.4467 Y43.6245 
G01 Z-0.1778 F254   
G01 X-89.9949 Y43.6245 F508   
G01 X-89.9441 Y43.6753 
G01 X-90.4909 Y43.6753 
G01 X-90.9447 Y44.1291 
G01 X-90.9447 Y44.7709 
G01 X-90.8525 Y44.8631 
G01 X-93.0429 Y47.0535 
G01 X-93.1137 Y47.0535 
G01 X-93.1073 Y47.0471 
G01 X-93.0783 Y46.9771 
G01 X-93.0783 Y46.2561 
G01 X-90.4467 Y43.6245 
G00 Z2.5400  
G00 X-56.9595 Y17.3329 
G01 Z-0.1778 F254   
G01 X-56.9595 Y18.2271 F508   
G01 X-56.3271 Y18.8595 
G01 X-55.4329 Y18.8595 
G01 X-54.8005 Y18.2271 
G01 X-54.8005 Y17.3329 
G01 X-55.4329 Y16.7005 
G01 X-56.3271 Y16.7005 
G01 X-56.9595 Y17.3329 
G00 Z2.5400  
G00 X-56.9595 Y19.8729 
G01 Z-0.1778 F254   
G01 X-56.9595 Y20.7671 F508   
G01 X-56.3271 Y21.3995 
G01 X-55.4329 Y21.3995 
G01 X-54.8005 Y20.7671 
G01 X-54.8005 Y19.8729 
G01 X-55.4329 Y19.2405 
G01 X-56.3271 Y19.2405 
G01 X-56.9595 Y19.8729 
G00 Z2.5400  
G00 X-56.9595 Y22.4129 
G01 Z-0.1778 F254   
G01 X-56.9595 Y23.3071 F508   
G01 X-56.3271 Y23.9395 
G01 X-55.4329 Y23.9395 
G01 X-54.8005 Y23.3071 
G01 X-54.8005 Y22.4129 
G01 X-55.4329 Y21.7805 
G01 X-56.3271 Y21.7805 
G01 X-56.9595 Y22.4129 
G00 Z2.5400  
G00 X-56.9595 Y24.9529 
G01 Z-0.1778 F254   
G01 X-56.9595 Y25.8471 F508   
G01 X-56.3271 Y26.4795 
G01 X-55.4329 Y26.4795 
G01 X-54.8005 Y25.8471 
G01 X-54.8005 Y24.9529 
G01 X-55.4329 Y24.3205 
G01 X-56.3271 Y24.3205 
G01 X-56.9595 Y24.9529 
G00 Z2.5400  
G00 X-56.9595 Y27.4929 
G01 Z-0.1778 F254   
G01 X-56.9595 Y28.3871 F508   
G01 X-56.3271 Y29.0195 
G01 X-55.4329 Y29.0195 
G01 X-54.8005 Y28.3871 
G01 X-54.8005 Y27.4929 
G01 X-55.4329 Y26.8605 
G01 X-56.3271 Y26.8605 
G01 X-56.9595 Y27.4929 
G00 Z2.5400  
G00 X-56.9595 Y30.0329 
G01 Z-0.1778 F254   
G01 X-56.9595 Y30.9271 F508   
G01 X-56.3271 Y31.5595 
G01 X-55.4329 Y31.5595 
G01 X-54.8005 Y30.9271 
G01 X-54.8005 Y30.0329 
G01 X-55.4329 Y29.4005 
G01 X-56.3271 Y29.4005 
G01 X-56.9595 Y30.0329 
G00 Z2.5400  
G00 X-41.7195 Y17.3329 
G01 Z-0.1778 F254   
G01 X-41.7195 Y18.2271 F508   
G01 X-41.0871 Y18.8595 
G01 X-40.1929 Y18.8595 
G01 X-39.5605 Y18.2271 
G01 X-39.5605 Y17.3329 
G01 X-40.1929 Y16.7005 
G01 X-41.0871 Y16.7005 
G01 X-41.7195 Y17.3329 
G00 Z2.5400  
G00 X-41.7195 Y24.9529 
G01 Z-0.1778 F254   
G01 X-41.7195 Y25.8471 F508   
G01 X-41.0871 Y26.4795 
G01 X-40.1929 Y26.4795 
G01 X-39.5605 Y25.8471 
G01 X-39.5605 Y24.9529 
G01 X-40.1929 Y24.3205 
G01 X-41.0871 Y24.3205 
G01 X-41.7195 Y24.9529 
G00 Z2.5400  
G00 X-41.7195 Y27.4929 
G01 Z-0.1778 F254   
G01 X-41.7195 Y28.3871 F508   
G01 X-41.0871 Y29.0195 
G01 X-40.1929 Y29.0195 
G01 X-39.5605 Y28.3871 
G01 X-39.5605 Y27.4929 
G01 X-40.1929 Y26.8605 
G01 X-41.0871 Y26.8605 
G01 X-41.7195 Y27.4929 
G00 Z2.5400  
G00 X-41.7195 Y30.0329 
G01 Z-0.1778 F254   
G01 X-41.7195 Y30.9271 F508   
G01 X-41.0871 Y31.5595 
G01 X-40.1929 Y31.5595 
G01 X-39.5605 Y30.9271 
G01 X-39.5605 Y30.0329 
G01 X-40.1929 Y29.4005 
G01 X-41.0871 Y29.4005 
G01 X-41.7195 Y30.0329 
G00 Z2.5400  
G00 X-41.7195 Y32.5729 
G01 Z-0.1778 F254   
G01 X-41.7195 Y33.4671 F508   
G01 X-41.0871 Y34.0995 
G01 X-40.1929 Y34.0995 
G01 X-39.5605 Y33.4671 
G01 X-39.5605 Y32.5729 
G01 X-40.1929 Y31.9405 
G01 X-41.0871 Y31.9405 
G01 X-41.7195 Y32.5729 
G00 Z2.5400  
G00 X-41.7195 Y35.1129 
G01 Z-0.1778 F254   
G01 X-41.7195 Y36.0071 F508   
G01 X-41.0871 Y36.6395 
G01 X-40.1929 Y36.6395 
G01 X-39.5605 Y36.0071 
G01 X-39.5605 Y35.1129 
G01 X-40.1929 Y34.4805 
G01 X-41.0871 Y34.4805 
G01 X-41.7195 Y35.1129 
G00 Z2.5400  
G00 X-41.7195 Y37.6529 
G01 Z-0.1778 F254   
G01 X-41.7195 Y38.5471 F508   
G01 X-41.0871 Y39.1795 
G01 X-40.1929 Y39.1795 
G01 X-39.5605 Y38.5471 
G01 X-39.5605 Y37.6529 
G01 X-40.1929 Y37.0205 
G01 X-41.0871 Y37.0205 
G01 X-41.7195 Y37.6529 
G00 Z2.5400  
G00 X-41.7195 Y47.8129 
G01 Z-0.1778 F254   
G01 X-41.7195 Y48.7071 F508   
G01 X-41.0871 Y49.3395 
G01 X-40.1929 Y49.3395 
G01 X-39.5605 Y48.7071 
G01 X-39.5605 Y47.8129 
G01 X-40.1929 Y47.1805 
G01 X-41.0871 Y47.1805 
G01 X-41.7195 Y47.8129 
G00 Z2.5400  
G00 X-41.7195 Y50.3529 
G01 Z-0.1778 F254   
G01 X-41.7195 Y51.2471 F508   
G01 X-41.0871 Y51.8795 
G01 X-40.1929 Y51.8795 
G01 X-39.5605 Y51.2471 
G01 X-39.5605 Y50.3529 
G01 X-40.1929 Y49.7205 
G01 X-41.0871 Y49.7205 
G01 X-41.7195 Y50.3529 
G00 Z2.5400  
G00 X-41.7195 Y52.8929 
G01 Z-0.1778 F254   
G01 X-41.7195 Y53.7871 F508   
G01 X-41.0871 Y54.4195 
G01 X-40.1929 Y54.4195 
G01 X-39.5605 Y53.7871 
G01 X-39.5605 Y52.8929 
G01 X-40.1929 Y52.2605 
G01 X-41.0871 Y52.2605 
G01 X-41.7195 Y52.8929 
G00 Z2.5400  
G00 X-41.7195 Y55.4329 
G01 Z-0.1778 F254   
G01 X-41.7195 Y56.3271 F508   
G01 X-41.0871 Y56.9595 
G01 X-40.1929 Y56.9595 
G01 X-39.5605 Y56.3271 
G01 X-39.5605 Y55.4329 
G01 X-40.1929 Y54.8005 
G01 X-41.0871 Y54.8005 
G01 X-41.7195 Y55.4329 
G00 Z2.5400  
G00 X-45.5295 Y22.4129 
G01 Z-0.1778 F254   
G01 X-45.5295 Y23.3071 F508   
G01 X-44.8971 Y23.9395 
G01 X-44.0029 Y23.9395 
G01 X-43.3705 Y23.3071 
G01 X-43.3705 Y22.4129 
G01 X-44.0029 Y21.7805 
G01 X-44.8971 Y21.7805 
G01 X-45.5295 Y22.4129 
G00 Z2.5400  
G00 X-45.5295 Y24.9529 
G01 Z-0.1778 F254   
G01 X-45.5295 Y25.8471 F508   
G01 X-44.8971 Y26.4795 
G01 X-44.0029 Y26.4795 
G01 X-43.3705 Y25.8471 
G01 X-43.3705 Y24.9529 
G01 X-44.0029 Y24.3205 
G01 X-44.8971 Y24.3205 
G01 X-45.5295 Y24.9529 
G00 Z2.5400  
G00 X-48.0695 Y24.9529 
G01 Z-0.1778 F254   
G01 X-48.0695 Y25.8471 F508   
G01 X-47.4371 Y26.4795 
G01 X-46.5429 Y26.4795 
G01 X-45.9105 Y25.8471 
G01 X-45.9105 Y24.9529 
G01 X-46.5429 Y24.3205 
G01 X-47.4371 Y24.3205 
G01 X-48.0695 Y24.9529 
G00 Z2.5400  
G00 X-48.0695 Y22.4129 
G01 Z-0.1778 F254   
G01 X-48.0695 Y23.3071 F508   
G01 X-47.4371 Y23.9395 
G01 X-46.5429 Y23.9395 
G01 X-45.9105 Y23.3071 
G01 X-45.9105 Y22.4129 
G01 X-46.5429 Y21.7805 
G01 X-47.4371 Y21.7805 
G01 X-48.0695 Y22.4129 
G00 Z2.5400  
G00 X-48.0695 Y19.8729 
G01 Z-0.1778 F254   
G01 X-48.0695 Y20.7671 F508   
G01 X-47.4371 Y21.3995 
G01 X-46.5429 Y21.3995 
G01 X-45.9105 Y20.7671 
G01 X-45.9105 Y19.8729 
G01 X-46.5429 Y19.2405 
G01 X-47.4371 Y19.2405 
G01 X-48.0695 Y19.8729 
G00 Z2.5400  
G00 X-49.1363 Y63.9217 
G01 Z-0.1778 F254   
G01 X-49.1363 Y65.6183 F508   
G01 X-49.1026 Y65.7876 
G01 X-49.0366 Y65.9471 
G01 X-48.9407 Y66.0906 
G01 X-48.8186 Y66.2127 
G01 X-48.6751 Y66.3086 
G01 X-48.5156 Y66.3746 
G01 X-48.3463 Y66.4083 
G01 X-48.1737 Y66.4083 
G01 X-48.0044 Y66.3746 
G01 X-47.8449 Y66.3086 
G01 X-47.7014 Y66.2127 
G01 X-47.5793 Y66.0906 
G01 X-47.4834 Y65.9471 
G01 X-47.4174 Y65.7876 
G01 X-47.3837 Y65.6183 
G01 X-47.3837 Y63.9217 
G01 X-47.4174 Y63.7524 
G01 X-47.4834 Y63.5929 
G01 X-47.5793 Y63.4494 
G01 X-47.7014 Y63.3273 
G01 X-47.8449 Y63.2314 
G01 X-48.0044 Y63.1654 
G01 X-48.1737 Y63.1317 
G01 X-48.3463 Y63.1317 
G01 X-48.5156 Y63.1654 
G01 X-48.6751 Y63.2314 
G01 X-48.8186 Y63.3273 
G01 X-48.9407 Y63.4494 
G01 X-49.0366 Y63.5929 
G01 X-49.1026 Y63.7524 
G01 X-49.1363 Y63.9217 
G00 Z2.5400  
G00 X-55.2133 Y34.1285 
G01 Z-0.1778 F254   
G01 X-55.2833 Y34.0995 F508   
G01 X-56.3091 Y34.0995 
G01 X-55.4329 Y34.0995 
G01 X-54.8005 Y33.4671 
G01 X-54.8005 Y32.5729 
G01 X-55.4329 Y31.9405 
G01 X-56.3271 Y31.9405 
G01 X-56.9595 Y32.5729 
G01 X-56.9595 Y33.4491 
G01 X-58.5661 Y31.8425 
G01 X-58.6361 Y31.8135 
G01 X-66.3675 Y31.8135 
G01 X-66.9771 Y31.2039 
G01 X-66.9264 Y31.2249 
G01 X-66.7767 Y31.2547 
G01 X-65.3033 Y31.2547 
G01 X-65.1536 Y31.2249 
G01 X-65.0126 Y31.1665 
G01 X-64.8858 Y31.0817 
G01 X-64.7779 Y30.9738 
G01 X-64.6931 Y30.8470 
G01 X-64.6347 Y30.7060 
G01 X-64.6049 Y30.5563 
G01 X-64.6049 Y30.4037 
G01 X-64.6347 Y30.2540 
G01 X-64.6931 Y30.1130 
G01 X-64.7779 Y29.9862 
G01 X-64.8858 Y29.8783 
G01 X-65.0126 Y29.7935 
G01 X-65.1536 Y29.7351 
G01 X-65.3033 Y29.7053 
G01 X-65.7987 Y29.7053 
G01 X-65.7987 Y24.9201 
G01 X-65.5765 Y24.6979 
G01 X-65.5229 Y24.6443 
G01 X-65.4939 Y24.5743 
G01 X-65.4939 Y20.5361 
G01 X-65.5229 Y20.4661 
G01 X-66.2646 Y19.7244 
G01 X-66.1558 Y19.6517 
G01 X-66.0478 Y19.5438 
G01 X-65.9631 Y19.4170 
G01 X-65.9047 Y19.2760 
G01 X-65.8749 Y19.1263 
G01 X-65.8749 Y18.9737 
G01 X-65.9047 Y18.8240 
G01 X-65.9631 Y18.6830 
G01 X-66.0478 Y18.5562 
G01 X-66.1558 Y18.4483 
G01 X-66.2826 Y18.3635 
G01 X-66.4236 Y18.3051 
G01 X-66.5733 Y18.2753 
G01 X-66.7739 Y18.2753 
G01 X-65.5765 Y17.0779 
G01 X-65.5229 Y17.0243 
G01 X-65.4939 Y16.9543 
G01 X-65.4939 Y14.2113 
G01 X-56.3779 Y14.2113 
G01 X-56.9595 Y14.7929 
G01 X-56.9595 Y15.6871 
G01 X-56.3271 Y16.3195 
G01 X-55.4329 Y16.3195 
G01 X-54.8005 Y15.6871 
G01 X-54.8005 Y14.7929 
G01 X-55.3978 Y14.1956 
G01 X-55.3657 Y14.1823 
G01 X-55.3121 Y14.1287 
G01 X-54.1755 Y12.9921 
G01 X-41.7195 Y12.9921 
G01 X-41.7195 Y13.1471 
G01 X-41.0871 Y13.7795 
G01 X-40.1929 Y13.7795 
G01 X-39.5605 Y13.1471 
G01 X-39.5605 Y12.2529 
G01 X-40.1929 Y11.6205 
G01 X-41.0871 Y11.6205 
G01 X-41.7195 Y12.2529 
G01 X-41.7195 Y12.6111 
G01 X-54.2923 Y12.6111 
G01 X-54.3623 Y12.6401 
G01 X-54.8005 Y13.0783 
G01 X-54.8005 Y12.2529 
G01 X-55.4329 Y11.6205 
G01 X-56.3271 Y11.6205 
G01 X-56.9595 Y12.2529 
G01 X-56.9595 Y13.1471 
G01 X-56.3271 Y13.7795 
G01 X-55.5017 Y13.7795 
G01 X-55.5525 Y13.8303 
G01 X-65.4939 Y13.8303 
G01 X-65.4939 Y12.9161 
G01 X-65.5229 Y12.8461 
G01 X-66.2646 Y12.1044 
G01 X-66.1558 Y12.0317 
G01 X-66.0478 Y11.9238 
G01 X-65.9631 Y11.7970 
G01 X-65.9047 Y11.6560 
G01 X-65.8749 Y11.5063 
G01 X-65.8749 Y11.3537 
G01 X-65.9047 Y11.2040 
G01 X-65.9631 Y11.0630 
G01 X-66.0478 Y10.9362 
G01 X-66.1558 Y10.8283 
G01 X-66.2826 Y10.7435 
G01 X-66.4236 Y10.6851 
G01 X-66.5733 Y10.6553 
G01 X-68.0467 Y10.6553 
G01 X-68.1964 Y10.6851 
G01 X-68.3374 Y10.7435 
G01 X-68.4642 Y10.8283 
G01 X-68.5721 Y10.9362 
G01 X-68.6569 Y11.0630 
G01 X-68.7153 Y11.2040 
G01 X-68.7224 Y11.2395 
G01 X-70.1497 Y11.2395 
G01 X-70.1064 Y11.2145 
G01 X-70.0147 Y11.1228 
G01 X-69.9501 Y11.0109 
G01 X-69.1517 Y11.0109 
G01 X-69.0817 Y10.9819 
G01 X-67.7645 Y9.6647  
G01 X-66.5733 Y9.6647  
G01 X-66.4236 Y9.6349  
G01 X-66.2826 Y9.5765  
G01 X-66.1558 Y9.4917  
G01 X-66.0478 Y9.3838  
G01 X-65.9631 Y9.2570  
G01 X-65.9321 Y9.1821  
G01 X-58.9053 Y9.1821  
G01 X-56.5495 Y11.5379 
G01 X-56.4959 Y11.5915 
G01 X-56.4259 Y11.6205 
G01 X-40.1601 Y11.6205 
G01 X-39.5097 Y12.2709 
G01 X-39.5097 Y39.2403 
G01 X-40.0114 Y39.7420 
G01 X-40.1929 Y39.5605 
G01 X-41.0871 Y39.5605 
G01 X-41.7195 Y40.1929 
G01 X-41.7195 Y41.0871 
G01 X-41.0871 Y41.7195 
G01 X-40.1929 Y41.7195 
G01 X-39.5605 Y41.0871 
G01 X-39.5605 Y40.1929 
G01 X-39.7420 Y40.0114 
G01 X-39.2049 Y39.4743 
G01 X-39.2049 Y43.2027 
G01 X-39.5605 Y43.5583 
G01 X-39.5605 Y42.7329 
G01 X-40.1929 Y42.1005 
G01 X-41.0871 Y42.1005 
G01 X-41.7195 Y42.7329 
G01 X-41.7195 Y43.6271 
G01 X-41.0871 Y44.2595 
G01 X-40.2617 Y44.2595 
G01 X-40.6427 Y44.6405 
G01 X-41.0871 Y44.6405 
G01 X-41.7195 Y45.2729 
G01 X-41.7195 Y46.1671 
G01 X-41.0871 Y46.7995 
G01 X-40.1929 Y46.7995 
G01 X-39.5605 Y46.1671 
G01 X-39.5605 Y45.2729 
G01 X-40.1484 Y44.6850 
G01 X-38.9065 Y43.4431 
G01 X-38.8529 Y43.3895 
G01 X-38.8239 Y43.3195 
G01 X-38.8239 Y10.0205 
G01 X-38.8529 Y9.9505  
G01 X-41.2913 Y7.5121  
G01 X-41.3449 Y7.4585  
G01 X-41.4149 Y7.4295  
G01 X-97.5739 Y7.4295  
G01 X-97.6439 Y7.4585  
G01 X-97.6975 Y7.5121  
G01 X-98.4059 Y8.2205  
G01 X-98.4595 Y8.2741  
G01 X-98.4885 Y8.3441  
G01 X-98.4885 Y9.3343  
G01 X-98.4595 Y9.4043  
G01 X-97.5451 Y10.3187 
G01 X-97.4915 Y10.3723 
G01 X-97.4215 Y10.4013 
G01 X-95.7099 Y10.4013 
G01 X-95.8703 Y10.5617 
G01 X-97.3595 Y10.5617 
G01 X-97.5273 Y10.5951 
G01 X-97.6853 Y10.6605 
G01 X-97.8275 Y10.7555 
G01 X-97.9485 Y10.8765 
G01 X-98.0435 Y11.0187 
G01 X-98.1089 Y11.1767 
G01 X-98.1423 Y11.3445 
G01 X-98.1423 Y11.5155 
G01 X-98.1089 Y11.6833 
G01 X-98.0435 Y11.8413 
G01 X-97.9485 Y11.9835 
G01 X-97.8275 Y12.1044 
G01 X-97.6853 Y12.1995 
G01 X-97.5273 Y12.2649 
G01 X-97.3595 Y12.2983 
G01 X-97.3021 Y12.2983 
G01 X-99.0155 Y14.0117 
G01 X-99.0691 Y14.0653 
G01 X-99.0981 Y14.1353 
G01 X-99.0981 Y24.4219 
G01 X-99.0691 Y24.4919 
G01 X-97.6677 Y25.8933 
G01 X-97.6853 Y25.9005 
G01 X-97.8275 Y25.9955 
G01 X-97.9485 Y26.1165 
G01 X-98.0435 Y26.2587 
G01 X-98.1089 Y26.4167 
G01 X-98.1423 Y26.5845 
G01 X-98.1423 Y26.7555 
G01 X-98.1089 Y26.9233 
G01 X-98.0435 Y27.0813 
G01 X-97.9485 Y27.2235 
G01 X-97.8275 Y27.3445 
G01 X-97.6853 Y27.4395 
G01 X-97.6677 Y27.4467 
G01 X-99.0691 Y28.8481 
G01 X-99.0981 Y28.9181 
G01 X-99.0981 Y35.0899 
G01 X-99.0691 Y35.1599 
G01 X-99.0155 Y35.2135 
G01 X-98.2626 Y35.9664 
G01 X-98.7643 Y36.4681 
G01 X-98.7933 Y36.5381 
G01 X-98.7933 Y46.3675 
G01 X-98.7643 Y46.4375 
G01 X-98.7107 Y46.4911 
G01 X-97.6530 Y47.5488 
G01 X-98.7643 Y48.6601 
G01 X-98.7933 Y48.7301 
G01 X-98.7933 Y63.7411 
G01 X-98.7643 Y63.8111 
G01 X-98.7107 Y63.8647 
G01 X-97.3964 Y65.1790 
G01 X-97.5273 Y65.2051 
G01 X-97.6853 Y65.2705 
G01 X-97.8275 Y65.3655 
G01 X-97.9485 Y65.4865 
G01 X-98.0435 Y65.6287 
G01 X-98.1089 Y65.7867 
G01 X-98.1423 Y65.9545 
G01 X-98.1423 Y66.1255 
G01 X-98.1089 Y66.2933 
G01 X-98.0435 Y66.4513 
G01 X-97.9485 Y66.5935 
G01 X-97.8275 Y66.7144 
G01 X-97.6853 Y66.8095 
G01 X-97.5273 Y66.8749 
G01 X-97.3595 Y66.9083 
G01 X-95.9719 Y66.9083 
G01 X-92.4623 Y70.4179 
G01 X-92.3923 Y70.4469 
G01 X-45.9869 Y70.4469 
G01 X-45.9169 Y70.4179 
G01 X-45.8633 Y70.3643 
G01 X-40.5293 Y65.0303 
G01 X-40.5003 Y64.9603 
G01 X-40.5003 Y59.4995 
G01 X-40.1929 Y59.4995 
G01 X-39.5605 Y58.8671 
G01 X-39.5605 Y57.9729 
G01 X-40.1929 Y57.3405 
G01 X-41.0871 Y57.3405 
G01 X-41.7195 Y57.9729 
G01 X-41.7195 Y58.8671 
G01 X-41.0871 Y59.4995 
G01 X-40.8813 Y59.4995 
G01 X-40.8813 Y64.8435 
G01 X-41.7195 Y65.6817 
G01 X-41.7195 Y24.1581 
G01 X-41.2940 Y23.7326 
G01 X-41.0871 Y23.9395 
G01 X-40.1929 Y23.9395 
G01 X-39.5605 Y23.3071 
G01 X-39.5605 Y22.4129 
G01 X-40.1929 Y21.7805 
G01 X-41.0871 Y21.7805 
G01 X-41.7195 Y22.4129 
G01 X-41.7195 Y23.3071 
G01 X-41.5634 Y23.4632 
G01 X-42.0715 Y23.9713 
G01 X-42.1005 Y24.0413 
G01 X-42.1005 Y65.6055 
G01 X-42.3761 Y65.8811 
G01 X-42.3374 Y65.7876 
G01 X-42.3037 Y65.6183 
G01 X-42.3037 Y63.9217 
G01 X-42.3374 Y63.7524 
G01 X-42.4034 Y63.5929 
G01 X-42.4993 Y63.4494 
G01 X-42.6214 Y63.3273 
G01 X-42.7649 Y63.2314 
G01 X-42.9244 Y63.1654 
G01 X-42.9387 Y63.1625 
G01 X-42.9387 Y22.9389 
G01 X-41.2432 Y21.2434 
G01 X-41.0871 Y21.3995 
G01 X-40.1929 Y21.3995 
G01 X-39.5605 Y20.7671 
G01 X-39.5605 Y19.8729 
G01 X-40.1929 Y19.2405 
G01 X-41.0871 Y19.2405 
G01 X-41.7195 Y19.8729 
G01 X-41.7195 Y20.7671 
G01 X-41.5126 Y20.9740 
G01 X-43.2907 Y22.7521 
G01 X-43.3197 Y22.8221 
G01 X-43.3197 Y63.1423 
G01 X-43.4356 Y63.1654 
G01 X-43.5951 Y63.2314 
G01 X-43.7386 Y63.3273 
G01 X-43.8607 Y63.4494 
G01 X-43.9566 Y63.5929 
G01 X-44.0226 Y63.7524 
G01 X-44.0563 Y63.9217 
G01 X-44.0563 Y65.6183 
G01 X-44.0226 Y65.7876 
G01 X-43.9566 Y65.9471 
G01 X-43.9321 Y65.9837 
G01 X-44.8437 Y65.0721 
G01 X-44.8437 Y63.9217 
G01 X-44.8774 Y63.7524 
G01 X-44.9434 Y63.5929 
G01 X-45.0393 Y63.4494 
G01 X-45.1614 Y63.3273 
G01 X-45.3049 Y63.2314 
G01 X-45.4644 Y63.1654 
G01 X-45.6337 Y63.1317 
G01 X-45.8063 Y63.1317 
G01 X-45.9756 Y63.1654 
G01 X-46.1351 Y63.2314 
G01 X-46.2786 Y63.3273 
G01 X-46.4007 Y63.4494 
G01 X-46.4966 Y63.5929 
G01 X-46.5626 Y63.7524 
G01 X-46.5963 Y63.9217 
G01 X-46.5963 Y65.6183 
G01 X-46.5626 Y65.7876 
G01 X-46.4966 Y65.9471 
G01 X-46.4007 Y66.0906 
G01 X-46.2786 Y66.2127 
G01 X-46.1351 Y66.3086 
G01 X-45.9756 Y66.3746 
G01 X-45.8063 Y66.4083 
G01 X-45.6337 Y66.4083 
G01 X-45.4644 Y66.3746 
G01 X-45.3049 Y66.3086 
G01 X-45.1614 Y66.2127 
G01 X-45.0393 Y66.0906 
G01 X-44.9434 Y65.9471 
G01 X-44.8774 Y65.7876 
G01 X-44.8437 Y65.6183 
G01 X-44.8437 Y65.6109 
G01 X-43.6943 Y66.7603 
G01 X-43.6243 Y66.7893 
G01 X-42.8271 Y66.7893 
G01 X-46.1037 Y70.0659 
G01 X-64.1577 Y70.0659 
G01 X-64.1513 Y70.0595 
G01 X-59.0523 Y64.9605 
G01 X-51.6763 Y64.9605 
G01 X-51.6763 Y65.6183 
G01 X-51.6426 Y65.7876 
G01 X-51.5766 Y65.9471 
G01 X-51.4807 Y66.0906 
G01 X-51.3586 Y66.2127 
G01 X-51.2151 Y66.3086 
G01 X-51.0556 Y66.3746 
G01 X-50.8863 Y66.4083 
G01 X-50.7137 Y66.4083 
G01 X-50.5444 Y66.3746 
G01 X-50.3849 Y66.3086 
G01 X-50.2414 Y66.2127 
G01 X-50.1193 Y66.0906 
G01 X-50.0234 Y65.9471 
G01 X-49.9574 Y65.7876 
G01 X-49.9237 Y65.6183 
G01 X-49.9237 Y63.9217 
G01 X-49.9574 Y63.7524 
G01 X-50.0234 Y63.5929 
G01 X-50.1193 Y63.4494 
G01 X-50.2414 Y63.3273 
G01 X-50.3849 Y63.2314 
G01 X-50.5444 Y63.1654 
G01 X-50.7137 Y63.1317 
G01 X-50.8863 Y63.1317 
G01 X-51.0556 Y63.1654 
G01 X-51.2151 Y63.2314 
G01 X-51.3586 Y63.3273 
G01 X-51.4807 Y63.4494 
G01 X-51.5766 Y63.5929 
G01 X-51.6426 Y63.7524 
G01 X-51.6763 Y63.9217 
G01 X-51.6763 Y64.5795 
G01 X-59.1285 Y64.5795 
G01 X-45.5585 Y51.0095 
G01 X-45.5295 Y50.9395 
G01 X-45.5295 Y19.8909 
G01 X-45.5295 Y20.7671 
G01 X-44.8971 Y21.3995 
G01 X-44.0029 Y21.3995 
G01 X-43.3705 Y20.7671 
G01 X-43.3705 Y19.8729 
G01 X-44.0029 Y19.2405 
G01 X-44.8791 Y19.2405 
G01 X-41.5226 Y15.8840 
G01 X-41.0871 Y16.3195 
G01 X-40.1929 Y16.3195 
G01 X-39.5605 Y15.6871 
G01 X-39.5605 Y14.7929 
G01 X-40.1929 Y14.1605 
G01 X-41.0871 Y14.1605 
G01 X-41.7195 Y14.7929 
G01 X-41.7195 Y15.5421 
G01 X-45.8279 Y19.6505 
G01 X-45.8815 Y19.7041 
G01 X-45.9105 Y19.7741 
G01 X-45.9105 Y50.8227 
G01 X-53.4543 Y58.3665 
G01 X-53.4543 Y35.9285 
G01 X-53.4833 Y35.8585 
G01 X-53.5369 Y35.8049 
G01 X-55.2133 Y34.1285 
G00 Z2.5400  
G00 X-91.4527 Y56.4481 
G01 Z-0.1778 F254   
G01 X-91.5641 Y56.4019 F508   
G01 X-91.6838 Y56.3781 
G01 X-91.8058 Y56.3781 
G01 X-91.9255 Y56.4019 
G01 X-92.0382 Y56.4486 
G01 X-92.1397 Y56.5164 
G01 X-92.2260 Y56.6027 
G01 X-92.2777 Y56.6801 
G01 X-95.1394 Y56.6801 
G01 X-95.1937 Y56.6947 
G01 X-95.1315 Y56.6531 
G01 X-94.9929 Y56.5145 
G01 X-94.8840 Y56.3514 
G01 X-94.8090 Y56.1703 
G01 X-94.7707 Y55.9780 
G01 X-94.7707 Y55.7820 
G01 X-94.8090 Y55.5897 
G01 X-94.8840 Y55.4085 
G01 X-94.9929 Y55.2455 
G01 X-95.1315 Y55.1069 
G01 X-95.2617 Y55.0199 
G01 X-92.0623 Y51.8205 
G01 X-92.0623 Y54.9407 
G01 X-92.1397 Y54.9924 
G01 X-92.2260 Y55.0787 
G01 X-92.2938 Y55.1802 
G01 X-92.3405 Y55.2929 
G01 X-92.3643 Y55.4126 
G01 X-92.3643 Y55.5346 
G01 X-92.3405 Y55.6543 
G01 X-92.2938 Y55.7670 
G01 X-92.2260 Y55.8685 
G01 X-92.1397 Y55.9548 
G01 X-92.0382 Y56.0226 
G01 X-91.9255 Y56.0693 
G01 X-91.8058 Y56.0931 
G01 X-91.6838 Y56.0931 
G01 X-91.5641 Y56.0693 
G01 X-91.4527 Y56.0231 
G01 X-91.4527 Y56.4481 
G00 Z2.5400  
G00 X-90.5831 Y45.3121 
G01 Z-0.1778 F254   
G01 X-90.5435 Y45.3517 F508   
G01 X-90.1491 Y45.3517 
G01 X-91.3893 Y46.5919 
G01 X-91.4311 Y46.6642 
G01 X-91.4527 Y46.7450 
G01 X-91.4527 Y48.3063 
G01 X-91.4907 Y48.2683 
G01 X-91.5499 Y48.2091 
G01 X-91.6222 Y48.1673 
G01 X-91.7030 Y48.1457 
G01 X-92.2621 Y48.1457 
G01 X-92.2159 Y48.0343 
G01 X-92.1921 Y47.9146 
G01 X-92.1921 Y47.7926 
G01 X-92.2159 Y47.6729 
G01 X-92.2626 Y47.5602 
G01 X-92.3304 Y47.4587 
G01 X-92.4167 Y47.3724 
G01 X-92.5182 Y47.3046 
G01 X-92.5588 Y47.2878 
G01 X-90.5831 Y45.3121 
G00 Z2.5400  
G00 X-92.3671 Y51.2273 
G01 Z-0.1778 F254   
G01 X-96.0245 Y54.8847 F508   
G01 X-97.3720 Y54.8847 
G01 X-97.5643 Y54.9230 
G01 X-97.7455 Y54.9980 
G01 X-97.9085 Y55.1069 
G01 X-98.0471 Y55.2455 
G01 X-98.1560 Y55.4085 
G01 X-98.2310 Y55.5897 
G01 X-98.2693 Y55.7820 
G01 X-98.2693 Y55.9780 
G01 X-98.2310 Y56.1703 
G01 X-98.1560 Y56.3514 
G01 X-98.0471 Y56.5145 
G01 X-97.9085 Y56.6531 
G01 X-97.7455 Y56.7620 
G01 X-97.5643 Y56.8370 
G01 X-97.3720 Y56.8753 
G01 X-95.6680 Y56.8753 
G01 X-95.4757 Y56.8370 
G01 X-95.3227 Y56.7737 
G01 X-95.9737 Y57.4247 
G01 X-97.3720 Y57.4247 
G01 X-97.5643 Y57.4629 
G01 X-97.7455 Y57.5380 
G01 X-97.9085 Y57.6469 
G01 X-98.0471 Y57.7855 
G01 X-98.1560 Y57.9485 
G01 X-98.2310 Y58.1297 
G01 X-98.2693 Y58.3220 
G01 X-98.2693 Y58.5180 
G01 X-98.2310 Y58.7103 
G01 X-98.1560 Y58.8915 
G01 X-98.0471 Y59.0545 
G01 X-97.9085 Y59.1931 
G01 X-97.7455 Y59.3020 
G01 X-97.5643 Y59.3770 
G01 X-97.3720 Y59.4153 
G01 X-95.6680 Y59.4153 
G01 X-95.4757 Y59.3770 
G01 X-95.2945 Y59.3020 
G01 X-95.1315 Y59.1931 
G01 X-94.9929 Y59.0545 
G01 X-94.8840 Y58.8915 
G01 X-94.8090 Y58.7103 
G01 X-94.7707 Y58.5180 
G01 X-94.7707 Y58.3220 
G01 X-94.8090 Y58.1297 
G01 X-94.8840 Y57.9485 
G01 X-94.9929 Y57.7855 
G01 X-95.1315 Y57.6469 
G01 X-95.2313 Y57.5803 
G01 X-94.9661 Y57.3151 
G01 X-92.2777 Y57.3151 
G01 X-92.2260 Y57.3925 
G01 X-92.1397 Y57.4788 
G01 X-92.0382 Y57.5466 
G01 X-91.9255 Y57.5933 
G01 X-91.8835 Y57.6017 
G01 X-92.7017 Y58.4199 
G01 X-92.7609 Y58.4791 
G01 X-96.6641 Y62.3823 
G01 X-96.7233 Y62.4415 
G01 X-96.7598 Y62.5047 
G01 X-97.3720 Y62.5047 
G01 X-97.5643 Y62.5430 
G01 X-97.7455 Y62.6180 
G01 X-97.9085 Y62.7269 
G01 X-98.0471 Y62.8655 
G01 X-98.1560 Y63.0285 
G01 X-98.2310 Y63.2097 
G01 X-98.2693 Y63.4020 
G01 X-98.2693 Y63.5877 
G01 X-98.2853 Y63.5717 
G01 X-98.2853 Y50.7537 
G01 X-97.8087 Y51.2303 
G01 X-97.9085 Y51.2969 
G01 X-98.0471 Y51.4355 
G01 X-98.1560 Y51.5985 
G01 X-98.2310 Y51.7797 
G01 X-98.2693 Y51.9720 
G01 X-98.2693 Y52.1680 
G01 X-98.2310 Y52.3603 
G01 X-98.1560 Y52.5415 
G01 X-98.0471 Y52.7045 
G01 X-97.9085 Y52.8431 
G01 X-97.7455 Y52.9520 
G01 X-97.5643 Y53.0270 
G01 X-97.3720 Y53.0653 
G01 X-95.6680 Y53.0653 
G01 X-95.4757 Y53.0270 
G01 X-95.2945 Y52.9520 
G01 X-95.1315 Y52.8431 
G01 X-94.9929 Y52.7045 
G01 X-94.8840 Y52.5415 
G01 X-94.8090 Y52.3603 
G01 X-94.7707 Y52.1680 
G01 X-94.7707 Y51.9720 
G01 X-94.8090 Y51.7797 
G01 X-94.8840 Y51.5985 
G01 X-94.9929 Y51.4355 
G01 X-95.1315 Y51.2969 
G01 X-95.2945 Y51.1880 
G01 X-95.4757 Y51.1130 
G01 X-95.6680 Y51.0747 
G01 X-97.0663 Y51.0747 
G01 X-97.7173 Y50.4237 
G01 X-97.5643 Y50.4870 
G01 X-97.3720 Y50.5253 
G01 X-95.6680 Y50.5253 
G01 X-95.4757 Y50.4870 
G01 X-95.2945 Y50.4120 
G01 X-95.1315 Y50.3031 
G01 X-94.9929 Y50.1645 
G01 X-94.8840 Y50.0015 
G01 X-94.8090 Y49.8203 
G01 X-94.7707 Y49.6280 
G01 X-94.7707 Y49.4320 
G01 X-94.8090 Y49.2397 
G01 X-94.8840 Y49.0585 
G01 X-94.9929 Y48.8955 
G01 X-95.1077 Y48.7807 
G01 X-92.5991 Y48.7807 
G01 X-92.6453 Y48.8921 
G01 X-92.6691 Y49.0118 
G01 X-92.6691 Y49.1338 
G01 X-92.6453 Y49.2535 
G01 X-92.5986 Y49.3662 
G01 X-92.5308 Y49.4677 
G01 X-92.4445 Y49.5540 
G01 X-92.3671 Y49.6057 
G01 X-92.3671 Y51.2273 
G00 Z2.5400  
G00 X-95.5315 Y48.1711 
G01 Z-0.1778 F254   
G01 X-95.5973 Y48.2091 F508   
G01 X-95.9229 Y48.5347 
G01 X-97.3109 Y48.5347 
G01 X-96.9473 Y48.1711 
G01 X-95.5315 Y48.1711 
G00 Z2.5400  
G00 X-95.0287 Y45.0497 
G01 Z-0.1778 F254   
G01 X-95.1315 Y44.9469 F508   
G01 X-95.2945 Y44.8380 
G01 X-95.4757 Y44.7630 
G01 X-95.6680 Y44.7247 
G01 X-97.3720 Y44.7247 
G01 X-97.5643 Y44.7630 
G01 X-97.7173 Y44.8263 
G01 X-97.0663 Y44.1753 
G01 X-95.6680 Y44.1753 
G01 X-95.4757 Y44.1370 
G01 X-95.2945 Y44.0620 
G01 X-95.1315 Y43.9531 
G01 X-94.9929 Y43.8145 
G01 X-94.8840 Y43.6515 
G01 X-94.8090 Y43.4703 
G01 X-94.8043 Y43.4467 
G01 X-93.8366 Y43.4467 
G01 X-93.7558 Y43.4251 
G01 X-93.6835 Y43.3833 
G01 X-91.4276 Y41.1274 
G01 X-91.4499 Y41.2394 
G01 X-91.4499 Y41.3614 
G01 X-91.4317 Y41.4527 
G01 X-95.0287 Y45.0497 
G00 Z2.5400  
G00 X-81.6483 Y44.0765 
G01 Z-0.1778 F254   
G01 X-82.1765 Y43.5483 F508   
G01 X-82.9235 Y43.5483 
G01 X-82.9377 Y43.5625 
G01 X-83.8283 Y42.6719 
G01 X-83.8101 Y42.5806 
G01 X-83.8101 Y42.4586 
G01 X-83.8339 Y42.3389 
G01 X-83.8801 Y42.2275 
G01 X-79.2271 Y42.2275 
G01 X-79.1973 Y42.2573 
G01 X-79.1381 Y42.3165 
G01 X-79.0658 Y42.3583 
G01 X-78.9850 Y42.3799 
G01 X-74.7450 Y42.3799 
G01 X-74.8952 Y42.4796 
G01 X-75.0208 Y42.6052 
G01 X-75.1195 Y42.7529 
G01 X-75.1874 Y42.9170 
G01 X-75.2221 Y43.0912 
G01 X-75.2221 Y43.2688 
G01 X-75.1874 Y43.4430 
G01 X-75.1195 Y43.6071 
G01 X-75.0208 Y43.7548 
G01 X-74.8952 Y43.8804 
G01 X-74.7475 Y43.9791 
G01 X-74.5834 Y44.0470 
G01 X-74.4092 Y44.0817 
G01 X-72.9108 Y44.0817 
G01 X-72.7366 Y44.0470 
G01 X-72.5725 Y43.9791 
G01 X-72.4248 Y43.8804 
G01 X-72.2992 Y43.7548 
G01 X-72.2005 Y43.6071 
G01 X-72.1326 Y43.4430 
G01 X-72.0979 Y43.2688 
G01 X-72.0979 Y43.0912 
G01 X-72.1326 Y42.9170 
G01 X-72.2005 Y42.7529 
G01 X-72.2992 Y42.6052 
G01 X-72.4248 Y42.4796 
G01 X-72.5725 Y42.3809 
G01 X-69.9561 Y42.3799 
G01 X-71.7595 Y44.1833 
G01 X-81.2710 Y44.1833 
G01 X-81.3518 Y44.2049 
G01 X-81.4241 Y44.2467 
G01 X-81.6483 Y44.4709 
G01 X-81.6483 Y44.0765 
G00 Z2.5400  
G00 X-68.9057 Y42.2275 
G01 Z-0.1778 F254   
G01 X-67.5177 Y42.2275 F508   
G01 X-75.2856 Y49.9954 
G01 X-76.0050 Y49.2759 
G01 X-76.0774 Y49.2341 
G01 X-76.1582 Y49.2125 
G01 X-81.6483 Y49.2125 
G01 X-81.6483 Y49.1565 
G01 X-82.1765 Y48.6283 
G01 X-82.4693 Y48.6283 
G01 X-80.7929 Y46.9519 
G01 X-72.5006 Y46.9519 
G01 X-72.4198 Y46.9303 
G01 X-72.3475 Y46.8885 
G01 X-71.8903 Y46.4313 
G01 X-71.8311 Y46.3721 
G01 X-71.7893 Y46.2998 
G01 X-71.7677 Y46.2190 
G01 X-71.7677 Y45.2210 
G01 X-71.7893 Y45.1402 
