(.../eagle-8.3.2/ulp/pcbgcode/pcb-gcode.ulp)
(Copyright 2005 - 2012 by John Johnson)
(See readme.txt for licensing terms.)
(This file generated from the board:)
(.../jose/code/vrx/schematic/vrx.brd)
(Current profile is .../ulp/pcbgcode/profiles/mach.pp  )
(This file generated 1/29/18 8:03 PM)
(Settings from pcb-machine.h)
(  Tool Size)
(0.1778  )
(Z Axis Settings)
(  High     Up        Down     Drill)
(12.7000 	2.5400  	-0.1778 	-0.8128 )
(spindle on time = 3.0000)
(milling depth = -0.2540)
(text depth = -0.1270)
(tool change at 12.7000 15.2400 25.4000 )
(feed rate xy = F508   )
(feed rate z  = F254   )
(Settings from pcb-defaults.h)
(isolate min = 0.0254)
(isolate max = 0.5080)
(isolate step = 0.1270)
(Generated bottom outlines, bottom drill, )
(Unit of measure: mm)
( Tool|       Size       |  Min Sub |  Max Sub |   Count )
( T01 | 0.350mm 0.0138in | 0.0000in | 0.0000in |       0 )
( T02 | 0.800mm 0.0315in | 0.0000in | 0.0000in |       0 )
( T03 | 0.813mm 0.0320in | 0.0000in | 0.0000in |       0 )
( T04 | 1.000mm 0.0394in | 0.0000in | 0.0000in |       0 )
( T05 | 1.016mm 0.0400in | 0.0000in | 0.0000in |       0 )
( T06 | 1.100mm 0.0433in | 0.0000in | 0.0000in |       0 )
( T07 | 2.200mm 0.0866in | 0.0000in | 0.0000in |       0 )
(Metric Mode)
G21
(Absolute Coordinates)
G90
M05
G00 Z25.4000 
G00 X12.7000 Y15.2400 
M06 T01  ; 0.3500  
G01 Z0.0000  F254   
M06 T01  ; 0.3500  
G00 Z2.5400  
M03
G04 P3.000000
G82 X-54.4068 Y46.9392 Z-0.8128 F254   R2.5400  P1.000000
G82 X-60.3504 Y42.5196 
G82 X-64.3128 Y39.7764 
G82 X-70.4088 Y10.8204 
G82 X-71.7804 Y12.1920 
G82 X-74.8284 Y56.2356 
G82 X-75.5904 Y55.4736 
G82 X-75.7428 Y41.1480 
G82 X-75.7428 Y57.1500 
G82 X-76.5048 Y56.3880 
G82 X-80.0100 Y61.2648 
G82 X-80.9244 Y60.3504 
G82 X-81.2292 Y38.4048 
G82 X-82.1436 Y39.3192 
G82 X-83.8200 Y47.5488 
G82 X-84.4296 Y42.5196 
G82 X-85.9536 Y40.9956 
G82 X-88.2396 Y45.2628 
G82 X-88.8492 Y59.4360 
G82 X-89.6112 Y58.5216 
G82 X-89.9160 Y42.2148 
G82 X-90.2208 Y35.6616 
G82 X-90.8304 Y41.3004 
G82 X-91.7448 Y55.4736 
G82 X-91.7448 Y56.9976 
G82 X-91.8972 Y37.3380 
G82 X-92.0496 Y49.0728 
G82 X-92.8116 Y47.8536 
G82 X-93.4212 Y29.1084 
G82 X-93.8784 Y46.6344 
G82 X-94.9452 Y28.1940 
G82 X-97.9932 Y20.2692 
M05
G00 Z25.4000 
M06 T02  ; 0.8000  
G01 Z0.0000  F254   
M06 T02  ; 0.8000  
G00 Z2.5400  
M03
G04 P3.000000
G82 X-40.6400 Y33.0200 Z-0.8128 F254   R2.5400  P1.000000
G82 X-40.6400 Y35.5600 
G82 X-40.6400 Y38.1000 
G82 X-40.6400 Y40.6400 
G82 X-40.6400 Y43.1800 
G82 X-40.6400 Y45.7200 
G82 X-40.6400 Y48.2600 
G82 X-40.6400 Y50.8000 
G82 X-40.6400 Y53.3400 
G82 X-40.6400 Y55.8800 
G82 X-40.6400 Y58.4200 
G82 X-40.6400 Y10.1600 
G82 X-40.6400 Y12.7000 
G82 X-40.6400 Y15.2400 
G82 X-40.6400 Y17.7800 
G82 X-40.6400 Y20.3200 
G82 X-40.6400 Y22.8600 
G82 X-40.6400 Y25.4000 
G82 X-40.6400 Y27.9400 
G82 X-40.6400 Y30.4800 
G82 X-55.8800 Y33.0200 
G82 X-55.8800 Y35.5600 
G82 X-55.8800 Y38.1000 
G82 X-55.8800 Y40.6400 
G82 X-55.8800 Y43.1800 
G82 X-55.8800 Y45.7200 
G82 X-55.8800 Y48.2600 
G82 X-55.8800 Y50.8000 
G82 X-55.8800 Y53.3400 
G82 X-55.8800 Y55.8800 
G82 X-55.8800 Y58.4200 
G82 X-55.8800 Y10.1600 
G82 X-55.8800 Y12.7000 
G82 X-55.8800 Y15.2400 
G82 X-55.8800 Y17.7800 
G82 X-55.8800 Y20.3200 
G82 X-55.8800 Y22.8600 
G82 X-55.8800 Y25.4000 
G82 X-55.8800 Y27.9400 
G82 X-55.8800 Y30.4800 
M05
G00 Z25.4000 
M06 T03  ; 0.8128  
G01 Z0.0000  F254   
M06 T03  ; 0.8128  
G00 Z2.5400  
M03
G04 P3.000000
G82 X-66.0400 Y33.0200 Z-0.8128 F254   R2.5400  P1.000000
G82 X-66.0400 Y35.5600 
G82 X-66.0400 Y38.1000 
G82 X-66.0400 Y40.6400 
G82 X-66.0400 Y43.1800 
G82 X-66.0400 Y45.7200 
G82 X-66.0400 Y30.4800 
G82 X-67.3100 Y8.8900  
G82 X-67.3100 Y11.4300 
G82 X-67.3100 Y13.9700 
G82 X-67.3100 Y16.5100 
G82 X-67.3100 Y19.0500 
G82 X-67.3100 Y21.5900 
G82 X-67.3100 Y24.1300 
G82 X-73.6600 Y33.0200 
G82 X-73.6600 Y35.5600 
G82 X-73.6600 Y38.1000 
G82 X-73.6600 Y40.6400 
G82 X-73.6600 Y43.1800 
G82 X-73.6600 Y45.7200 
G82 X-73.6600 Y30.4800 
G82 X-74.9300 Y8.8900  
G82 X-74.9300 Y11.4300 
G82 X-74.9300 Y13.9700 
G82 X-74.9300 Y16.5100 
G82 X-74.9300 Y19.0500 
G82 X-74.9300 Y21.5900 
G82 X-74.9300 Y24.1300 
G82 X-82.5500 Y38.1000 
G82 X-82.5500 Y44.4500 
G82 X-82.5500 Y49.5300 
G82 X-82.5500 Y54.6100 
G82 X-82.5500 Y59.6900 
G82 X-82.5500 Y13.9700 
G82 X-82.5500 Y19.0500 
G82 X-82.5500 Y24.1300 
G82 X-82.5500 Y29.2100 
G82 X-90.1700 Y38.1000 
G82 X-90.1700 Y44.4500 
G82 X-90.1700 Y49.5300 
G82 X-90.1700 Y54.6100 
G82 X-90.1700 Y59.6900 
G82 X-90.1700 Y13.9700 
G82 X-90.1700 Y19.0500 
G82 X-90.1700 Y24.1300 
G82 X-90.1700 Y29.2100 
M05
G00 Z25.4000 
M06 T04  ; 1.0000  
G01 Z0.0000  F254   
M06 T04  ; 1.0000  
G00 Z2.5400  
M03
G04 P3.000000
G82 X-67.3500 Y53.4600 Z-0.8128 F254   R2.5400  P1.000000
G82 X-67.3500 Y67.9600 
G82 X-69.8500 Y53.4600 
G82 X-72.3500 Y53.4600 
G82 X-72.3500 Y67.9600 
G82 X-96.5200 Y31.7500 
G82 X-96.5200 Y34.2900 
G82 X-96.5200 Y38.1000 
G82 X-96.5200 Y40.6400 
G82 X-96.5200 Y43.1800 
G82 X-96.5200 Y45.7200 
G82 X-96.5200 Y49.5300 
G82 X-96.5200 Y52.0700 
G82 X-96.5200 Y55.8800 
G82 X-96.5200 Y58.4200 
G82 X-96.5200 Y63.5000 
G82 X-96.5200 Y66.0400 
G82 X-96.5200 Y8.8900  
G82 X-96.5200 Y11.4300 
G82 X-96.5200 Y13.9700 
G82 X-96.5200 Y16.5100 
G82 X-96.5200 Y19.0500 
G82 X-96.5200 Y24.1300 
G82 X-96.5200 Y26.6700 
G82 X-96.5200 Y29.2100 
M05
G00 Z25.4000 
M06 T05  ; 1.0160  
G01 Z0.0000  F254   
M06 T05  ; 1.0160  
G00 Z2.5400  
M03
G04 P3.000000
G82 X-43.1800 Y64.7700 Z-0.8128 F254   R2.5400  P1.000000
G82 X-45.7200 Y64.7700 
G82 X-48.2600 Y64.7700 
G82 X-50.8000 Y64.7700 
M05
G00 Z25.4000 
M06 T06  ; 1.1000  
G01 Z0.0000  F254   
M06 T06  ; 1.1000  
G00 Z2.5400  
M03
G04 P3.000000
G82 X-44.4500 Y20.3200 Z-0.8128 F254   R2.5400  P1.000000
G82 X-44.4500 Y22.8600 
G82 X-44.4500 Y25.4000 
G82 X-46.9900 Y20.3200 
G82 X-46.9900 Y22.8600 
G82 X-46.9900 Y25.4000 
M05
G00 Z25.4000 
M06 T07  ; 2.2000  
G01 Z0.0000  F254   
M06 T07  ; 2.2000  
G00 Z2.5400  
M03
G04 P3.000000
G82 X-63.7500 Y60.9600 Z-0.8128 F254   R2.5400  P1.000000
G82 X-75.9500 Y60.9600 
T01 
G00 Z12.7000 
M05
M02
